;FLAVOR:Marlin
;TIME:4485
;Filament used: 3.71253m
;Layer height: 0.2
;MINX:63
;MINY:95
;MINZ:0.2
;MAXX:157
;MAXY:125
;MAXZ:20
;TARGET_MACHINE.NAME:Creality Ender-3 S1 Pro
;Generated with Cura_SteamEngine 5.7.2
M104 S200
M105
M109 S200
M82 ;absolute extrusion mode
; Ender 3 S1 Pro Start G-code
; M413 S0 ; Disable power loss recovery
G92 E0 ; Reset Extruder

; Prep surfaces before auto home for better accuracy
M140 S60
M104 S200

G28 ; Home all axes
G1 Z10.0 F3000 ; Move Z Axis up little to prevent scratching of Heat Bed
G1 X0 Y0

M190 S60
M109 S200

G1 X0.1 Y20 Z0.3 F5000.0 ; Move to start position
G1 X0.1 Y200.0 Z0.3 F1500.0 E15 ; Draw the first line
G1 X0.4 Y200.0 Z0.3 F5000.0 ; Move to side a little
G1 X0.4 Y20 Z0.3 F1500.0 E30 ; Draw the second line
G92 E0 ; Reset Extruder
G1 Z2.0 F3000 ; Move Z Axis up little to prevent scratching of Heat Bed
G1 X5 Y20 Z0.3 F5000.0 ; Move over to prevent blob squish

G92 E0
G92 E0
G1 F2400 E-0.8
;LAYER_COUNT:100
;LAYER:0
M107
M204 S2000
G0 F7500 X64.974 Y96.012 Z0.2
M204 S500
;TYPE:SKIRT
G1 F2400 E0
G1 F1500 X66.271 Y95.238 E0.05024
G1 X67.476 Y95.04 E0.09085
G1 X152.529 Y95 E2.91973
G1 X153.75 Y95.3 E2.96154
G1 X155.06 Y95.979 E3.01062
G1 X155.988 Y96.974 E3.05587
G1 X156.762 Y98.271 E3.10611
G1 X156.96 Y99.476 E3.14673
G1 X157 Y120.529 E3.84695
G1 X156.7 Y121.75 E3.88877
G1 X156.021 Y123.06 E3.93785
G1 X155.026 Y123.988 E3.9831
G1 X153.729 Y124.762 E4.03334
G1 X152.524 Y124.96 E4.07395
G1 X67.471 Y125 E6.90283
G1 X66.25 Y124.7 E6.94465
G1 X64.94 Y124.021 E6.99372
G1 X64.012 Y123.026 E7.03897
G1 X63.238 Y121.729 E7.08921
G1 X63.04 Y120.524 E7.12983
G1 X63 Y99.471 E7.83005
G1 X63.3 Y98.25 E7.87187
G1 X63.979 Y96.94 E7.92095
G1 X64.974 Y96.012 E7.9662
M204 S2000
G0 F7500 X65.216 Y96.334
M204 S500
G1 F1500 X66.411 Y95.621 E8.01248
G1 X67.541 Y95.435 E8.05057
G1 X152.483 Y95.4 E10.87576
G1 X153.607 Y95.676 E10.91425
G1 X154.813 Y96.301 E10.95943
G1 X155.666 Y97.216 E11.00104
G1 X156.379 Y98.411 E11.04732
G1 X156.565 Y99.541 E11.08541
G1 X156.6 Y120.483 E11.78194
G1 X156.324 Y121.607 E11.82044
G1 X155.699 Y122.813 E11.86562
G1 X154.784 Y123.666 E11.90722
G1 X153.589 Y124.379 E11.95351
G1 X152.459 Y124.565 E11.99159
G1 X67.517 Y124.6 E14.81678
G1 X66.393 Y124.324 E14.85527
G1 X65.187 Y123.699 E14.90045
G1 X64.334 Y122.784 E14.94206
G1 X63.621 Y121.589 E14.98834
G1 X63.435 Y120.459 E15.02643
G1 X63.4 Y99.517 E15.72296
G1 X63.676 Y98.393 E15.76146
G1 X64.301 Y97.187 E15.80664
G1 X65.216 Y96.334 E15.84824
M204 S2000
G0 F7500 X65.458 Y96.656
M204 S500
G1 F1500 X66.551 Y96.004 E15.89057
G1 X67.606 Y95.83 E15.92614
G1 X152.436 Y95.8 E18.74759
G1 X153.465 Y96.053 E18.78284
G1 X154.566 Y96.623 E18.82407
G1 X155.344 Y97.458 E18.86203
G1 X155.996 Y98.551 E18.90436
G1 X156.17 Y99.606 E18.93993
G1 X156.2 Y120.436 E19.63274
G1 X155.947 Y121.465 E19.66798
G1 X155.377 Y122.566 E19.70922
G1 X154.542 Y123.344 E19.74718
G1 X153.449 Y123.996 E19.78951
G1 X152.394 Y124.17 E19.82507
G1 X67.564 Y124.2 E22.64653
G1 X66.535 Y123.947 E22.68177
G1 X65.434 Y123.377 E22.72301
G1 X64.656 Y122.542 E22.76096
G1 X64.004 Y121.449 E22.80329
G1 X63.83 Y120.394 E22.83886
G1 X63.8 Y99.564 E23.53167
G1 X64.053 Y98.535 E23.56691
G1 X64.623 Y97.434 E23.60815
G1 X65.458 Y96.656 E23.64611
M204 S2000
G0 F7500 X65.7 Y96.978
M204 S500
G1 F1500 X66.691 Y96.387 E23.68448
G1 X67.671 Y96.225 E23.71752
G1 X152.39 Y96.2 E26.53529
G1 X153.322 Y96.429 E26.56721
G1 X154.319 Y96.945 E26.60455
G1 X155.022 Y97.7 E26.63886
G1 X155.613 Y98.691 E26.67723
G1 X155.775 Y99.671 E26.71027
G1 X155.8 Y120.39 E27.39939
G1 X155.571 Y121.322 E27.43131
G1 X155.055 Y122.319 E27.46865
G1 X154.3 Y123.022 E27.50296
G1 X153.309 Y123.613 E27.54134
G1 X152.329 Y123.775 E27.57437
G1 X67.61 Y123.8 E30.39214
G1 X66.678 Y123.571 E30.42406
G1 X65.681 Y123.055 E30.4614
G1 X64.978 Y122.3 E30.49571
G1 X64.387 Y121.309 E30.53409
G1 X64.225 Y120.329 E30.56712
G1 X64.2 Y99.61 E31.25624
G1 X64.429 Y98.678 E31.28816
G1 X64.945 Y97.681 E31.3255
G1 X65.7 Y96.978 E31.35981
M204 S2000
G0 F7500 X65.939 Y97.302
M204 S500
G1 F1500 X66.831 Y96.77 E31.39436
G1 X67.736 Y96.62 E31.42487
G1 X152.344 Y96.6 E34.23894
G1 X153.179 Y96.805 E34.26754
G1 X154.074 Y97.268 E34.30105
G1 X154.698 Y97.939 E34.33153
G1 X155.23 Y98.831 E34.36607
G1 X155.38 Y99.736 E34.39658
G1 X155.4 Y120.344 E35.08201
G1 X155.195 Y121.179 E35.11061
G1 X154.732 Y122.074 E35.14412
G1 X154.061 Y122.698 E35.1746
G1 X153.169 Y123.23 E35.20914
G1 X152.264 Y123.38 E35.23965
G1 X67.656 Y123.4 E38.05373
G1 X66.821 Y123.195 E38.08232
G1 X65.926 Y122.732 E38.11584
G1 X65.302 Y122.061 E38.14631
G1 X64.77 Y121.169 E38.18086
G1 X64.62 Y120.264 E38.21137
G1 X64.6 Y99.656 E38.89679
G1 X64.805 Y98.821 E38.92539
G1 X65.268 Y97.926 E38.95891
G1 X65.939 Y97.302 E38.98938
M204 S2000
G0 F7500 X66.178 Y97.626
M204 S500
G1 F1500 X66.971 Y97.153 E39.02009
G1 X67.802 Y97.015 E39.04811
G1 X152.298 Y97 E41.85846
G1 X153.036 Y97.181 E41.88373
G1 X153.829 Y97.591 E41.91343
G1 X154.374 Y98.178 E41.94007
G1 X154.847 Y98.971 E41.97078
G1 X154.985 Y99.802 E41.9988
G1 X155 Y120.298 E42.6805
G1 X154.819 Y121.036 E42.70577
G1 X154.409 Y121.829 E42.73546
G1 X153.822 Y122.374 E42.7621
G1 X153.029 Y122.847 E42.79281
G1 X152.198 Y122.985 E42.82083
G1 X67.702 Y123 E45.63118
G1 X66.964 Y122.819 E45.65645
G1 X66.171 Y122.409 E45.68614
G1 X65.626 Y121.822 E45.71279
G1 X65.153 Y121.029 E45.7435
G1 X65.015 Y120.198 E45.77151
G1 X65 Y99.702 E46.45321
G1 X65.181 Y98.964 E46.47849
G1 X65.591 Y98.171 E46.50818
G1 X66.178 Y97.626 E46.53482
M204 S2000
G0 F7500 X66.417 Y97.95
M204 S500
G1 F1500 X67.111 Y97.536 E46.5617
G1 X67.868 Y97.41 E46.58722
G1 X152.248 Y97.4 E49.39371
G1 X152.897 Y97.559 E49.41594
G1 X153.584 Y97.914 E49.44166
G1 X154.05 Y98.417 E49.46446
G1 X154.464 Y99.111 E49.49134
G1 X154.59 Y99.868 E49.51687
G1 X154.6 Y120.248 E50.19471
G1 X154.441 Y120.897 E50.21693
G1 X154.086 Y121.584 E50.24265
G1 X153.583 Y122.05 E50.26546
G1 X152.889 Y122.464 E50.29233
G1 X152.132 Y122.59 E50.31786
G1 X67.752 Y122.6 E53.12435
G1 X67.103 Y122.441 E53.14657
G1 X66.416 Y122.086 E53.17229
G1 X65.95 Y121.583 E53.1951
G1 X65.536 Y120.889 E53.22198
G1 X65.41 Y120.132 E53.2475
G1 X65.4 Y99.752 E53.92534
G1 X65.559 Y99.103 E53.94757
G1 X65.914 Y98.416 E53.97329
G1 X66.417 Y97.95 E53.99609
M204 S2000
G0 F7500 X66.656 Y98.274
M204 S500
G1 F1500 X67.251 Y97.919 E54.01914
G1 X67.934 Y97.805 E54.04217
G1 X152.198 Y97.8 E56.8448
G1 X152.758 Y97.937 E56.86398
G1 X153.338 Y98.237 E56.88569
G1 X153.726 Y98.656 E56.90469
G1 X154.081 Y99.251 E56.92773
G1 X154.195 Y99.934 E56.95076
G1 X154.2 Y120.198 E57.62475
G1 X154.063 Y120.758 E57.64392
G1 X153.763 Y121.338 E57.66564
G1 X153.344 Y121.726 E57.68463
G1 X152.749 Y122.081 E57.70768
G1 X152.066 Y122.195 E57.73071
G1 X67.802 Y122.2 E60.53334
G1 X67.242 Y122.063 E60.55252
G1 X66.662 Y121.763 E60.57423
G1 X66.274 Y121.344 E60.59323
G1 X65.919 Y120.749 E60.61627
G1 X65.805 Y120.066 E60.6393
G1 X65.8 Y99.802 E61.31329
G1 X65.937 Y99.242 E61.33246
G1 X66.237 Y98.662 E61.35418
G1 X66.656 Y98.274 E61.37317
M204 S2000
G0 F7500 X66.898 Y98.595
M204 S500
G1 F1500 X67.389 Y98.302 E61.39219
G1 X68 Y98.2 E61.41279
G1 X152.148 Y98.2 E64.21157
G1 X152.619 Y98.315 E64.22769
G1 X153.092 Y98.56 E64.24541
G1 X153.405 Y98.898 E64.26073
G1 X153.698 Y99.389 E64.27975
G1 X153.8 Y100 E64.30035
G1 X153.8 Y120.148 E64.97048
G1 X153.685 Y120.619 E64.9866
G1 X153.44 Y121.092 E65.00432
G1 X153.102 Y121.405 E65.01964
G1 X152.611 Y121.698 E65.03866
G1 X152 Y121.8 E65.05926
G1 X67.852 Y121.8 E67.85804
G1 X67.381 Y121.685 E67.87416
G1 X66.908 Y121.44 E67.89188
G1 X66.595 Y121.102 E67.9072
G1 X66.302 Y120.611 E67.92622
G1 X66.2 Y120 E67.94682
G1 X66.2 Y99.852 E68.61695
G1 X66.315 Y99.381 E68.63307
G1 X66.56 Y98.908 E68.65079
G1 X66.898 Y98.595 E68.66611
M204 S2000
G0 F7500 X67.14 Y98.916
M204 S500
G1 F1500 X67.527 Y98.685 E68.6811
G1 X68 Y98.6 E68.69709
G1 X152.098 Y98.6 E71.4942
G1 X152.48 Y98.693 E71.50727
G1 X152.846 Y98.883 E71.52099
G1 X153.084 Y99.14 E71.53264
G1 X153.315 Y99.527 E71.54763
G1 X153.4 Y100 E71.56362
G1 X153.4 Y120.098 E72.23208
G1 X153.307 Y120.48 E72.24515
G1 X153.117 Y120.846 E72.25887
G1 X152.86 Y121.084 E72.27052
G1 X152.473 Y121.315 E72.28551
G1 X152 Y121.4 E72.30149
G1 X67.902 Y121.4 E75.0986
G1 X67.52 Y121.307 E75.11168
G1 X67.154 Y121.117 E75.1254
G1 X66.916 Y120.86 E75.13705
G1 X66.685 Y120.473 E75.15204
G1 X66.6 Y120 E75.16802
G1 X66.6 Y99.902 E75.83648
G1 X66.693 Y99.52 E75.84956
G1 X66.883 Y99.154 E75.86328
G1 X67.14 Y98.916 E75.87493
M204 S2000
G0 F7500 X67.345 Y99.26
M204 S500
G1 F1500 X67.672 Y99.065 E75.88759
G1 X68 Y99 E75.89871
G1 X152.049 Y99 E78.69419
G1 X152.338 Y99.07 E78.70408
G1 X152.601 Y99.207 E78.71395
G1 X152.74 Y99.345 E78.72046
G1 X152.935 Y99.672 E78.73312
G1 X153 Y100 E78.74424
G1 X153 Y120.049 E79.41108
G1 X152.93 Y120.338 E79.42097
G1 X152.793 Y120.601 E79.43083
G1 X152.655 Y120.74 E79.43734
G1 X152.328 Y120.935 E79.45001
G1 X152 Y121 E79.46113
G1 X67.951 Y121 E82.25661
G1 X67.662 Y120.93 E82.2665
G1 X67.399 Y120.793 E82.27636
G1 X67.26 Y120.655 E82.28288
G1 X67.065 Y120.328 E82.29554
G1 X67 Y120 E82.30666
G1 X67 Y99.951 E82.9735
G1 X67.07 Y99.662 E82.98339
G1 X67.207 Y99.399 E82.99325
G1 X67.345 Y99.26 E82.99976
M204 S2000
G0 F7500 X67.839 Y99.881
M204 S500
G1 F1500 X68 Y99.8 E83.00576
G1 X152 Y99.8 E85.79961
G1 X152.119 Y99.839 E85.80377
G1 X152.2 Y100 E85.80977
G1 X152.2 Y120 E86.47497
G1 X152.161 Y120.119 E86.47914
G1 X152 Y120.2 E86.48513
G1 X68 Y120.2 E89.27898
G1 X67.881 Y120.161 E89.28315
G1 X67.8 Y120 E89.28914
G1 X67.8 Y100 E89.95434
G1 X67.839 Y99.881 E89.95851
M204 S2000
G0 F7500 X67.459 Y99.756
M204 S500
G1 F1500 X67.55 Y99.604 E89.9644
G1 X67.82 Y99.443 E89.97486
G1 X68 Y99.4 E89.98101
G1 X152 Y99.4 E92.77486
G1 X152.244 Y99.459 E92.78321
G1 X152.396 Y99.55 E92.78911
G1 X152.557 Y99.82 E92.79956
G1 X152.6 Y100 E92.80572
G1 X152.6 Y120 E93.47092
G1 X152.541 Y120.244 E93.47927
G1 X152.45 Y120.396 E93.48516
G1 X152.18 Y120.557 E93.49562
G1 X152 Y120.6 E93.50177
G1 X68 Y120.6 E96.29562
G1 X67.756 Y120.541 E96.30397
G1 X67.604 Y120.45 E96.30986
G1 X67.443 Y120.18 E96.32032
G1 X67.4 Y120 E96.32648
G1 X67.4 Y100 E96.99168
G1 X67.459 Y99.756 E97.00003
M204 S2000
G1 F2400 E96.20003
;MESH:Smooth Rottis.stl
G0 F7500 X76.849 Y107.55
G0 X80.455 Y112.46
M204 S500
;TYPE:WALL-INNER
G1 F2400 E97.00003
G1 F1500 X79.499 Y112.607 E97.0322
G1 X78.534 Y112.458 E97.06467
G1 X77.67 Y112.016 E97.09695
G1 X76.995 Y111.339 E97.12875
G1 X76.542 Y110.464 E97.16152
G1 X76.388 Y109.502 E97.19393
G1 X76.542 Y108.532 E97.22659
G1 X76.995 Y107.659 E97.2593
G1 X77.67 Y106.984 E97.29105
G1 X78.533 Y106.542 E97.3233
G1 X79.499 Y106.387 E97.35584
G1 X80.46 Y106.542 E97.38822
G1 X81.333 Y106.986 E97.4208
G1 X82.026 Y107.689 E97.45363
G1 X82.46 Y108.539 E97.48537
G1 X82.606 Y109.5 E97.5177
G1 X82.463 Y110.436 E97.54919
G1 X82.026 Y111.31 E97.58169
G1 X81.331 Y112.016 E97.61464
G1 X80.455 Y112.46 E97.64731
M204 S2000
G1 F2400 E96.84731
G0 F7500 X80.473 Y112.559
G0 X82.165 Y111.436
G0 X86.835 Y111.436
G0 X90.455 Y112.46
M204 S500
G1 F2400 E97.64731
G1 F1500 X89.499 Y112.607 E97.67948
G1 X88.534 Y112.458 E97.71196
G1 X87.668 Y112.015 E97.74431
G1 X86.973 Y111.31 E97.77724
G1 X86.538 Y110.437 E97.80968
G1 X86.39 Y109.5 E97.84123
G1 X86.542 Y108.533 E97.87379
G1 X86.974 Y107.689 E97.90532
G1 X87.667 Y106.985 E97.93818
G1 X88.533 Y106.542 E97.97053
G1 X89.499 Y106.387 E98.00307
G1 X90.46 Y106.542 E98.03545
G1 X91.333 Y106.986 E98.06802
G1 X92.026 Y107.689 E98.10085
G1 X92.46 Y108.539 E98.1326
G1 X92.606 Y109.5 E98.16493
G1 X92.463 Y110.436 E98.19642
G1 X92.026 Y111.31 E98.22892
G1 X91.331 Y112.016 E98.26187
G1 X90.455 Y112.46 E98.29454
M204 S2000
G1 F2400 E97.49454
G0 F7500 X90.473 Y112.559
G0 X92.165 Y111.436
G0 X96.835 Y111.436
G0 X99.499 Y112.607
M204 S500
G1 F2400 E98.29454
G1 F1500 X98.534 Y112.458 E98.32701
G1 X97.668 Y112.015 E98.35936
G1 X96.973 Y111.31 E98.39229
G1 X96.538 Y110.437 E98.42473
G1 X96.39 Y109.5 E98.45628
G1 X96.542 Y108.533 E98.48884
G1 X96.974 Y107.689 E98.52038
G1 X97.667 Y106.985 E98.55323
G1 X98.533 Y106.542 E98.58559
G1 X99.499 Y106.387 E98.61813
G1 X100.46 Y106.542 E98.6505
G1 X101.333 Y106.986 E98.68308
G1 X102.026 Y107.689 E98.71591
G1 X102.46 Y108.539 E98.74765
G1 X102.606 Y109.5 E98.77998
G1 X102.463 Y110.436 E98.81148
G1 X102.026 Y111.31 E98.84398
G1 X101.331 Y112.016 E98.87693
G1 X100.455 Y112.46 E98.90959
G1 X99.499 Y112.607 E98.94176
M204 S2000
G1 F2400 E98.14176
G0 F7500 X98.788 Y112.6
G0 X100.41 Y112.303
G0 X102.165 Y111.436
G0 X106.835 Y111.436
G0 X109.499 Y112.607
M204 S500
G1 F2400 E98.94176
G1 F1500 X108.534 Y112.458 E98.97424
G1 X107.668 Y112.015 E99.00659
G1 X106.973 Y111.31 E99.03952
G1 X106.538 Y110.437 E99.07196
G1 X106.39 Y109.5 E99.10351
G1 X106.542 Y108.533 E99.13607
G1 X106.974 Y107.689 E99.1676
G1 X107.667 Y106.985 E99.20046
G1 X108.533 Y106.542 E99.23281
G1 X109.499 Y106.387 E99.26535
G1 X110.46 Y106.542 E99.29773
G1 X111.333 Y106.986 E99.3303
G1 X112.026 Y107.689 E99.36314
G1 X112.46 Y108.539 E99.39488
G1 X112.606 Y109.5 E99.42721
G1 X112.463 Y110.436 E99.4587
G1 X112.026 Y111.31 E99.4912
G1 X111.331 Y112.016 E99.52415
G1 X110.455 Y112.46 E99.55682
G1 X109.499 Y112.607 E99.58899
M204 S2000
G1 F2400 E98.78899
G0 F7500 X108.788 Y112.6
G0 X110.41 Y112.303
G0 X112.165 Y111.436
G0 X116.835 Y111.436
G0 X119.499 Y112.607
M204 S500
G1 F2400 E99.58899
G1 F1500 X118.534 Y112.458 E99.62146
G1 X117.668 Y112.015 E99.65382
G1 X116.973 Y111.31 E99.68674
G1 X116.538 Y110.437 E99.71919
G1 X116.39 Y109.5 E99.75074
G1 X116.542 Y108.533 E99.78329
G1 X116.974 Y107.689 E99.81483
G1 X117.667 Y106.985 E99.84769
G1 X118.533 Y106.542 E99.88004
G1 X119.499 Y106.387 E99.91258
G1 X120.46 Y106.542 E99.94496
G1 X121.333 Y106.986 E99.97753
G1 X122.026 Y107.689 E100.01036
G1 X122.46 Y108.539 E100.04211
G1 X122.606 Y109.5 E100.07444
G1 X122.463 Y110.436 E100.10593
G1 X122.026 Y111.31 E100.13843
G1 X121.331 Y112.016 E100.17138
G1 X120.455 Y112.46 E100.20404
G1 X119.499 Y112.607 E100.23621
M204 S2000
G1 F2400 E99.43621
G0 F7500 X118.788 Y112.6
G0 X120.41 Y112.303
G0 X122.165 Y111.436
G0 X126.835 Y111.436
G0 X128.534 Y112.458
M204 S500
G1 F2400 E100.23621
G1 F1500 X127.668 Y112.015 E100.26857
G1 X126.973 Y111.31 E100.30149
G1 X126.538 Y110.437 E100.33394
G1 X126.39 Y109.5 E100.36549
G1 X126.542 Y108.533 E100.39804
G1 X126.974 Y107.689 E100.42958
G1 X127.667 Y106.985 E100.46244
G1 X128.533 Y106.542 E100.49479
G1 X129.499 Y106.387 E100.52733
G1 X130.46 Y106.542 E100.55971
G1 X131.333 Y106.986 E100.59228
G1 X132.026 Y107.689 E100.62511
G1 X132.46 Y108.539 E100.65686
G1 X132.606 Y109.5 E100.68919
G1 X132.463 Y110.436 E100.72068
G1 X132.026 Y111.31 E100.75318
G1 X131.331 Y112.016 E100.78613
G1 X130.455 Y112.46 E100.81879
G1 X129.499 Y112.607 E100.85097
G1 X128.534 Y112.458 E100.88344
M204 S2000
G1 F2400 E100.08344
G0 F7500 X128.488 Y112.549
G0 X130.41 Y112.303
G0 X132.165 Y111.436
G0 X136.835 Y111.436
G0 X138.534 Y112.458
M204 S500
G1 F2400 E100.88344
G1 F1500 X137.668 Y112.015 E100.91579
G1 X136.973 Y111.31 E100.94872
G1 X136.538 Y110.437 E100.98116
G1 X136.39 Y109.5 E101.01271
G1 X136.542 Y108.533 E101.04527
G1 X136.974 Y107.689 E101.07681
G1 X137.667 Y106.985 E101.10966
G1 X138.533 Y106.542 E101.14202
G1 X139.499 Y106.387 E101.17456
G1 X140.46 Y106.542 E101.20693
G1 X141.331 Y106.985 E101.23943
G1 X142.016 Y107.67 E101.27165
G1 X142.458 Y108.534 E101.30393
G1 X142.607 Y109.499 E101.33641
G1 X142.459 Y110.46 E101.36875
G1 X142.001 Y111.345 E101.40189
G1 X141.33 Y112.016 E101.43345
G1 X140.455 Y112.46 E101.46609
G1 X139.499 Y112.607 E101.49826
G1 X138.534 Y112.458 E101.53074
M204 S2000
G1 F2400 E100.73074
G0 F7500 X138.488 Y112.549
G0 X140.515 Y112.633
G0 X140.513 Y119.219
G0 X151.4 Y119.4
M204 S500
G1 F2400 E101.53074
G1 F1500 X151.4 Y100.6 E102.15603
G1 X68.6 Y100.6 E104.90996
G1 X68.601 Y119.399 E105.53522
G1 X151.4 Y119.4 E108.28913
M204 S2000
G0 F7500 X151.8 Y119.8
M204 S500
;TYPE:WALL-OUTER
G1 F1500 X151.8 Y100.2 E108.94103
G1 X68.2 Y100.2 E111.72157
G1 X68.201 Y119.799 E112.37344
