;FLAVOR:Marlin
;TIME:21930
;Filament used: 23.7126m
;Layer height: 0.2
;MINX:0
;MINY:15.337
;MINZ:0.2
;MAXX:168.012
;MAXY:193.976
;MAXZ:19
;TARGET_MACHINE.NAME:Creality Ender-3 S1 Pro
;Generated with Cura_SteamEngine 5.7.2
M104 S200
M105
M109 S200
M82 ;absolute extrusion mode
; Ender 3 S1 Pro Start G-code
; M413 S0 ; Disable power loss recovery
G92 E0 ; Reset Extruder

; Prep surfaces before auto home for better accuracy
M140 S60
M104 S200

G28 ; Home all axes
G1 Z10.0 F3000 ; Move Z Axis up little to prevent scratching of Heat Bed
G1 X0 Y0

M190 S60
M109 S200

G1 X0.1 Y20 Z0.3 F5000.0 ; Move to start position
G1 X0.1 Y200.0 Z0.3 F1500.0 E15 ; Draw the first line
G1 X0.4 Y200.0 Z0.3 F5000.0 ; Move to side a little
G1 X0.4 Y20 Z0.3 F1500.0 E30 ; Draw the second line
G92 E0 ; Reset Extruder
G1 Z2.0 F3000 ; Move Z Axis up little to prevent scratching of Heat Bed
G1 X5 Y20 Z0.3 F5000.0 ; Move over to prevent blob squish

G92 E0
G92 E0
G1 F2400 E-0.8
;LAYER_COUNT:95
;LAYER:0
M107
M204 S2000
G0 F7500 X0.00 Y96.688 Z0.2
M204 S500
;TYPE:SKIRT
G1 F2400 E0
G1 F1500 X0.483 Y95.139 E0.05397
G1 X1.567 Y93.192 E0.12808
G1 X3.21 Y91.765 E0.20046
G1 X134.334 Y16.057 E5.23641
G1 X136.094 Y15.471 E5.2981
G1 X138.596 Y15.337 E5.38144
G1 X140.629 Y15.971 E5.45227
G1 X142.576 Y17.055 E5.52639
G1 X144.002 Y18.698 E5.59874
G1 X149.591 Y28.376 E5.97046
G1 X161.065 Y28.376 E6.35208
G1 X162.961 Y28.842 E6.41702
G1 X164.989 Y29.895 E6.49302
G1 X166.448 Y31.456 E6.56409
G1 X167.655 Y33.479 E6.64244
G1 X167.937 Y35.197 E6.70035
G1 X168.012 Y187.029 E11.7503
G1 X167.546 Y188.925 E11.81524
G1 X166.493 Y190.953 E11.89124
G1 X164.932 Y192.412 E11.96231
G1 X162.909 Y193.619 E12.04066
G1 X161.191 Y193.901 E12.09856
G1 X59.469 Y193.976 E15.48185
G1 X57.776 Y193.538 E15.54001
G1 X56.585 Y193.081 E15.58244
G1 X55.325 Y192.083 E15.6359
G1 X54.367 Y191.822 E15.66893
G1 X52.27 Y190.448 E15.75231
G1 X51.137 Y188.963 E15.81444
G1 X0.569 Y101.434 E19.17658
G1 X0.00 Y99.725 E19.23649
M204 S2000
G0 F7500 X0.379 Y99.596
M204 S500
G1 F1500 X0.252 Y97.224 E19.3155
G1 X0.852 Y95.3 E19.38253
G1 X1.884 Y93.446 E19.45311
G1 X3.444 Y92.092 E19.52181
G1 X134.496 Y16.425 E24.55499
G1 X136.172 Y15.867 E24.61375
G1 X138.544 Y15.74 E24.69275
G1 X140.468 Y16.34 E24.75978
G1 X142.322 Y17.372 E24.83036
G1 X143.676 Y18.932 E24.89906
G1 X149.361 Y28.776 E25.27715
G1 X161.019 Y28.776 E25.6649
G1 X162.818 Y29.218 E25.72651
G1 X164.744 Y30.218 E25.79869
G1 X166.124 Y31.695 E25.86592
G1 X167.272 Y33.619 E25.94044
G1 X167.542 Y35.262 E25.99582
G1 X167.612 Y186.983 E31.04208
G1 X167.17 Y188.782 E31.1037
G1 X166.17 Y190.708 E31.17588
G1 X164.693 Y192.088 E31.24311
G1 X162.769 Y193.236 E31.31762
G1 X161.126 Y193.506 E31.373
G1 X59.519 Y193.576 E34.75247
G1 X57.919 Y193.164 E34.80742
G1 X56.784 Y192.729 E34.84785
G1 X55.509 Y191.718 E34.90197
G1 X54.534 Y191.453 E34.93557
G1 X52.547 Y190.151 E35.01458
G1 X51.455 Y188.72 E35.07446
G1 X0.937 Y101.272 E38.43344
G1 X0.379 Y99.596 E38.49219
M204 S2000
G0 F7500 X0.775 Y99.518
M204 S500
G1 F1500 X0.655 Y97.276 E38.56686
G1 X1.222 Y95.457 E38.63024
G1 X2.199 Y93.702 E38.69704
G1 X3.678 Y92.418 E38.76219
G1 X134.658 Y16.793 E43.7926
G1 X136.25 Y16.263 E43.84841
G1 X138.492 Y16.143 E43.92308
G1 X140.311 Y16.71 E43.98645
G1 X142.066 Y17.687 E44.05326
G1 X143.35 Y19.166 E44.1184
G1 X149.131 Y29.176 E44.50287
G1 X160.972 Y29.176 E44.8967
G1 X162.676 Y29.595 E44.95507
G1 X164.499 Y30.541 E45.02338
G1 X165.803 Y31.937 E45.08691
G1 X166.889 Y33.757 E45.15741
G1 X167.147 Y35.327 E45.21032
G1 X167.212 Y186.936 E50.25286
G1 X166.793 Y188.64 E50.31122
G1 X165.847 Y190.463 E50.37954
G1 X164.451 Y191.767 E50.44307
G1 X162.631 Y192.853 E50.51356
G1 X161.061 Y193.111 E50.56648
G1 X59.571 Y193.176 E53.94205
G1 X58.062 Y192.79 E53.99386
G1 X56.984 Y192.377 E54.03225
G1 X55.693 Y191.354 E54.08704
G1 X54.701 Y191.084 E54.12123
G1 X52.822 Y189.852 E54.19597
G1 X51.801 Y188.52 E54.25179
G1 X1.305 Y101.11 E57.60931
G1 X0.775 Y99.518 E57.66511
M204 S2000
G0 F7500 X1.171 Y99.443
M204 S500
G1 F1500 X1.058 Y97.328 E57.73556
G1 X1.592 Y95.614 E57.79527
G1 X2.514 Y93.958 E57.85831
G1 X3.912 Y92.744 E57.91989
G1 X134.824 Y17.159 E62.94768
G1 X136.325 Y16.659 E63.0003
G1 X138.44 Y16.546 E63.07075
G1 X140.154 Y17.08 E63.13046
G1 X141.81 Y18.002 E63.1935
G1 X143.024 Y19.4 E63.25508
G1 X148.9 Y29.576 E63.64591
G1 X160.926 Y29.576 E64.0459
G1 X162.533 Y29.971 E64.10094
G1 X164.254 Y30.864 E64.16542
G1 X165.482 Y32.179 E64.22527
G1 X166.506 Y33.895 E64.29173
G1 X166.752 Y35.392 E64.34219
G1 X166.812 Y186.89 E69.38103
G1 X166.417 Y188.497 E69.43607
G1 X165.524 Y190.218 E69.50056
G1 X164.209 Y191.446 E69.5604
G1 X162.493 Y192.47 E69.62687
G1 X160.996 Y192.716 E69.67733
G1 X59.623 Y192.776 E73.04901
G1 X58.161 Y192.402 E73.0992
G1 X57.185 Y192.026 E73.13399
G1 X55.877 Y190.99 E73.18948
G1 X54.868 Y190.715 E73.22427
G1 X53.098 Y189.555 E73.29465
G1 X52.119 Y188.277 E73.3482
G1 X1.671 Y100.944 E76.7027
G1 X1.171 Y99.443 E76.75532
M204 S2000
G0 F7500 X1.567 Y99.365
M204 S500
G1 F1500 X1.461 Y97.38 E76.82144
G1 X1.961 Y95.775 E76.87735
G1 X2.831 Y94.212 E76.93685
G1 X4.146 Y93.07 E76.99477
G1 X134.986 Y17.527 E82.01979
G1 X136.403 Y17.055 E82.06947
G1 X138.388 Y16.949 E82.13558
G1 X139.993 Y17.449 E82.1915
G1 X141.556 Y18.319 E82.25099
G1 X142.697 Y19.634 E82.3089
G1 X148.67 Y29.976 E82.70612
G1 X160.88 Y29.976 E83.11223
G1 X162.39 Y30.347 E83.16394
G1 X164.009 Y31.187 E83.22461
G1 X165.161 Y32.421 E83.28076
G1 X166.123 Y34.033 E83.34319
G1 X166.357 Y35.457 E83.39119
G1 X166.412 Y186.844 E88.42634
G1 X166.041 Y188.354 E88.47806
G1 X165.201 Y189.973 E88.53872
G1 X163.967 Y191.125 E88.59487
G1 X162.355 Y192.087 E88.65731
G1 X160.931 Y192.321 E88.70531
G1 X59.675 Y192.376 E92.0731
G1 X58.26 Y192.014 E92.12167
G1 X57.386 Y191.674 E92.15287
G1 X56.199 Y190.734 E92.20323
G1 X56.101 Y190.636 E92.20784
G1 X55.035 Y190.346 E92.24458
G1 X53.374 Y189.258 E92.31062
G1 X52.437 Y188.034 E92.36189
G1 X2.039 Y100.782 E95.71323
G1 X1.567 Y99.365 E95.76291
M204 S2000
G0 F7500 X1.963 Y99.287
M204 S500
G1 F1500 X1.864 Y97.432 E95.82469
G1 X2.331 Y95.932 E95.87694
G1 X3.146 Y94.468 E95.93267
G1 X4.38 Y93.397 E95.98702
G1 X135.148 Y17.895 E101.00928
G1 X136.481 Y17.451 E101.05601
G1 X138.336 Y17.352 E101.1178
G1 X139.836 Y17.819 E101.17005
G1 X141.3 Y18.634 E101.22578
G1 X142.371 Y19.868 E101.28012
G1 X148.44 Y30.376 E101.68372
G1 X160.833 Y30.376 E102.09592
G1 X162.248 Y30.724 E102.14438
G1 X163.764 Y31.51 E102.20118
G1 X164.84 Y32.663 E102.25363
G1 X165.74 Y34.171 E102.31204
G1 X165.962 Y35.522 E102.35758
G1 X166.012 Y186.797 E107.38901
G1 X165.664 Y188.212 E107.43747
G1 X164.878 Y189.728 E107.49427
G1 X163.725 Y190.804 E107.54672
G1 X162.217 Y191.704 E107.60513
G1 X160.866 Y191.926 E107.65067
G1 X59.727 Y191.976 E111.01457
G1 X58.359 Y191.626 E111.06153
G1 X57.589 Y191.324 E111.08904
G1 X56.481 Y190.45 E111.13598
G1 X56.308 Y190.278 E111.14409
G1 X55.202 Y189.977 E111.18222
G1 X53.65 Y188.961 E111.24391
G1 X52.755 Y187.791 E111.29291
G1 X2.407 Y100.62 E114.64108
G1 X1.963 Y99.287 E114.68781
M204 S2000
G0 F7500 X2.359 Y99.209
M204 S500
G1 F1500 X2.267 Y97.484 E114.74527
G1 X2.701 Y96.089 E114.79386
G1 X3.461 Y94.724 E114.84582
G1 X4.614 Y93.723 E114.89661
G1 X135.31 Y18.263 E119.9161
G1 X136.559 Y17.847 E119.95988
G1 X138.284 Y17.755 E120.01734
G1 X139.679 Y18.189 E120.06593
G1 X141.044 Y18.949 E120.11789
G1 X142.045 Y20.102 E120.16868
G1 X148.209 Y30.776 E120.57864
G1 X160.787 Y30.776 E120.99698
G1 X162.105 Y31.1 E121.04213
G1 X163.519 Y31.833 E121.0951
G1 X164.519 Y32.905 E121.14386
G1 X165.357 Y34.309 E121.19824
G1 X165.567 Y35.587 E121.24132
G1 X165.612 Y186.751 E126.26905
G1 X165.288 Y188.069 E126.3142
G1 X164.555 Y189.483 E126.36717
G1 X163.483 Y190.483 E126.41593
G1 X162.079 Y191.321 E126.47031
G1 X160.801 Y191.531 E126.51339
G1 X59.779 Y191.576 E129.87339
G1 X58.458 Y191.238 E129.91875
G1 X57.788 Y190.972 E129.94272
G1 X56.763 Y190.166 E129.98609
G1 X56.515 Y189.92 E129.99771
G1 X55.369 Y189.608 E130.03721
G1 X53.926 Y188.664 E130.09457
G1 X53.073 Y187.548 E130.14128
G1 X2.775 Y100.458 E133.48629
G1 X2.359 Y99.209 E133.53008
M204 S2000
G0 F7500 X2.755 Y99.131
M204 S500
G1 F1500 X2.67 Y97.536 E133.58321
G1 X3.07 Y96.25 E133.628
G1 X3.778 Y94.978 E133.67642
G1 X4.848 Y94.049 E133.72355
G1 X135.472 Y18.631 E138.74026
G1 X136.637 Y18.243 E138.78111
G1 X138.232 Y18.158 E138.83423
G1 X139.518 Y18.558 E138.87902
G1 X140.79 Y19.266 E138.92744
G1 X141.719 Y20.336 E138.97457
G1 X147.978 Y31.176 E139.3909
G1 X160.741 Y31.176 E139.8154
G1 X161.962 Y31.476 E139.85722
G1 X163.272 Y32.155 E139.90629
G1 X164.2 Y33.15 E139.95154
G1 X164.974 Y34.447 E140.00178
G1 X165.172 Y35.652 E140.0424
G1 X165.212 Y186.705 E145.06644
G1 X164.912 Y187.926 E145.10826
G1 X164.233 Y189.236 E145.15733
G1 X163.238 Y190.164 E145.20259
G1 X161.941 Y190.938 E145.25282
G1 X160.736 Y191.136 E145.29344
G1 X59.83 Y191.176 E148.64959
G1 X58.606 Y190.866 E148.69158
G1 X57.99 Y190.621 E148.71363
G1 X57.01 Y189.851 E148.75508
G1 X56.722 Y189.562 E148.76865
G1 X55.536 Y189.239 E148.80954
G1 X54.202 Y188.366 E148.86256
G1 X53.419 Y187.348 E148.90528
G1 X3.143 Y100.296 E152.24883
G1 X2.755 Y99.131 E152.28967
M204 S2000
G0 F7500 X3.151 Y99.053
M204 S500
G1 F1500 X3.073 Y97.588 E152.33846
G1 X3.44 Y96.407 E152.3796
G1 X4.093 Y95.234 E152.42425
G1 X5.082 Y94.375 E152.46782
G1 X135.634 Y18.999 E157.48176
G1 X136.715 Y18.639 E157.51966
G1 X138.18 Y18.561 E157.56845
G1 X139.361 Y18.928 E157.60959
G1 X140.534 Y19.581 E157.65424
G1 X141.392 Y20.57 E157.69779
G1 X147.748 Y31.576 E158.12051
G1 X160.695 Y31.576 E158.55112
G1 X161.819 Y31.852 E158.58962
G1 X163.025 Y32.477 E158.6348
G1 X163.878 Y33.392 E158.6764
G1 X164.591 Y34.587 E158.72269
G1 X164.777 Y35.717 E158.76078
G1 X164.812 Y186.659 E163.78113
G1 X164.536 Y187.783 E163.81962
G1 X163.911 Y188.989 E163.8648
G1 X162.996 Y189.842 E163.90641
G1 X161.801 Y190.555 E163.95269
G1 X160.671 Y190.741 E163.99078
G1 X59.88 Y190.776 E167.3431
G1 X58.754 Y190.494 E167.38171
G1 X58.192 Y190.27 E167.40183
G1 X57.257 Y189.536 E167.44137
G1 X56.931 Y189.204 E167.45684
G1 X55.703 Y188.87 E167.49917
G1 X54.477 Y188.068 E167.5479
G1 X53.765 Y187.148 E167.58659
G1 X3.511 Y100.134 E170.92868
G1 X3.151 Y99.053 E170.96658
M204 S2000
G0 F7500 X3.547 Y98.975
M204 S500
G1 F1500 X3.476 Y97.64 E171.01104
G1 X3.81 Y96.564 E171.04851
G1 X4.408 Y95.49 E171.0894
G1 X5.316 Y94.702 E171.12938
G1 X135.796 Y19.367 E176.14057
G1 X136.793 Y19.035 E176.17552
G1 X138.128 Y18.964 E176.21999
G1 X139.204 Y19.298 E176.25746
G1 X140.278 Y19.896 E176.29835
G1 X141.066 Y20.804 E176.33833
G1 X147.518 Y31.976 E176.76743
G1 X160.648 Y31.976 E177.20414
G1 X161.677 Y32.229 E177.23938
G1 X162.778 Y32.799 E177.28062
G1 X163.556 Y33.634 E177.31857
G1 X164.208 Y34.727 E177.3609
G1 X164.382 Y35.782 E177.39647
G1 X164.412 Y186.612 E182.41309
G1 X164.159 Y187.641 E182.44834
G1 X163.589 Y188.742 E182.48957
G1 X162.754 Y189.52 E182.52753
G1 X161.661 Y190.172 E182.56986
G1 X160.606 Y190.346 E182.60543
G1 X59.929 Y190.376 E185.95396
G1 X58.851 Y190.106 E185.99092
G1 X58.394 Y189.92 E186.00733
G1 X57.543 Y189.256 E186.04323
G1 X57.099 Y188.803 E186.06433
G1 X56.905 Y188.782 E186.07082
G1 X55.87 Y188.501 E186.10649
G1 X54.751 Y187.769 E186.15096
G1 X54.111 Y186.948 E186.18559
G1 X3.879 Y99.972 E189.52621
G1 X3.547 Y98.975 E189.56116
M204 S2000
G0 F7500 X3.943 Y98.897
M204 S500
G1 F1500 X3.879 Y97.692 E189.6013
G1 X4.18 Y96.723 E189.63505
G1 X4.724 Y95.745 E189.67227
G1 X5.55 Y95.028 E189.70865
G1 X135.958 Y19.735 E194.71707
G1 X136.871 Y19.431 E194.74907
G1 X138.076 Y19.367 E194.78921
G1 X139.045 Y19.668 E194.82295
G1 X140.023 Y20.212 E194.86018
G1 X140.74 Y21.038 E194.89656
G1 X147.288 Y32.376 E195.33203
G1 X160.602 Y32.376 E195.77486
G1 X161.534 Y32.605 E195.80678
G1 X162.531 Y33.121 E195.84411
G1 X163.234 Y33.876 E195.87843
G1 X163.825 Y34.867 E195.9168
G1 X163.987 Y35.847 E195.94984
G1 X164.012 Y186.566 E200.96277
G1 X163.783 Y187.498 E200.9947
G1 X163.267 Y188.495 E201.03203
G1 X162.512 Y189.198 E201.06635
G1 X161.521 Y189.789 E201.10472
G1 X160.541 Y189.951 E201.13776
G1 X59.977 Y189.976 E204.48253
G1 X59.002 Y189.735 E204.51594
G1 X58.594 Y189.569 E204.53059
G1 X57.829 Y188.976 E204.56278
G1 X57.279 Y188.415 E204.58891
G1 X57.01 Y188.396 E204.59788
G1 X56.037 Y188.132 E204.63141
G1 X55.026 Y187.471 E204.67159
G1 X54.427 Y186.702 E204.70401
G1 X4.247 Y99.81 E208.04135
G1 X3.943 Y98.897 E208.07336
M204 S2000
G0 F7500 X4.339 Y98.819
M204 S500
G1 F1500 X4.282 Y97.744 E208.10916
G1 X4.55 Y96.882 E208.13919
G1 X5.04 Y96 E208.17275
G1 X5.784 Y95.354 E208.20552
G1 X136.12 Y20.103 E213.21116
G1 X136.949 Y19.827 E213.24022
G1 X138.024 Y19.77 E213.27603
G1 X138.886 Y20.038 E213.30605
G1 X139.768 Y20.528 E213.33961
G1 X140.414 Y21.272 E213.37238
G1 X147.058 Y32.776 E213.81423
G1 X160.556 Y32.776 E214.26318
G1 X161.391 Y32.981 E214.29178
G1 X162.286 Y33.444 E214.32529
G1 X162.91 Y34.115 E214.35577
G1 X163.442 Y35.007 E214.39031
G1 X163.592 Y35.912 E214.42082
G1 X163.612 Y186.52 E219.43006
G1 X163.407 Y187.355 E219.45866
G1 X162.944 Y188.25 E219.49218
G1 X162.273 Y188.874 E219.52265
G1 X161.381 Y189.406 E219.5572
G1 X160.476 Y189.556 E219.58771
G1 X60.026 Y189.576 E222.92869
G1 X59.153 Y189.364 E222.95857
G1 X58.794 Y189.218 E222.97146
G1 X58.115 Y188.696 E222.99994
G1 X57.644 Y188.215 E223.02234
G1 X57.524 Y188.022 E223.02989
G1 X57.115 Y188.01 E223.0435
G1 X56.203 Y187.763 E223.07493
G1 X55.301 Y187.173 E223.11078
G1 X54.743 Y186.456 E223.141
G1 X4.615 Y99.648 E226.47506
G1 X4.339 Y98.819 E226.50412
M204 S2000
G0 F7500 X4.735 Y98.741
M204 S500
G1 F1500 X4.685 Y97.796 E226.53559
G1 X4.92 Y97.04 E226.56192
G1 X5.356 Y96.255 E226.59179
G1 X6.018 Y95.68 E226.62095
G1 X136.282 Y20.471 E231.62382
G1 X137.027 Y20.223 E231.64994
G1 X137.972 Y20.173 E231.68142
G1 X138.728 Y20.408 E231.70775
G1 X139.513 Y20.844 E231.73761
G1 X140.088 Y21.506 E231.76678
G1 X146.827 Y33.176 E232.21499
G1 X160.51 Y33.176 E232.67009
G1 X161.248 Y33.357 E232.69536
G1 X162.041 Y33.767 E232.72505
G1 X162.586 Y34.354 E232.7517
G1 X163.059 Y35.147 E232.78241
G1 X163.197 Y35.978 E232.81042
G1 X163.212 Y186.474 E237.81594
G1 X163.031 Y187.212 E237.84122
G1 X162.621 Y188.005 E237.87091
G1 X162.034 Y188.55 E237.89755
G1 X161.241 Y189.023 E237.92826
G1 X160.41 Y189.161 E237.95628
G1 X60.075 Y189.176 E241.29343
G1 X59.247 Y188.975 E241.32177
G1 X58.995 Y188.868 E241.33088
G1 X58.401 Y188.416 E241.3557
G1 X57.93 Y187.935 E241.37809
G1 X57.769 Y187.629 E241.38959
G1 X57.172 Y187.611 E241.40946
G1 X56.37 Y187.394 E241.43709
G1 X55.574 Y186.873 E241.46874
G1 X55.089 Y186.256 E241.49484
G1 X4.983 Y99.486 E244.82744
G1 X4.735 Y98.741 E244.85355
M204 S2000
G0 F7500 X5.131 Y98.663
M204 S500
G1 F1500 X5.088 Y97.848 E244.8807
G1 X5.29 Y97.198 E244.90334
G1 X5.672 Y96.51 E244.92951
G1 X6.252 Y96.006 E244.95507
G1 X136.444 Y20.839 E249.95517
G1 X137.105 Y20.619 E249.97834
G1 X137.92 Y20.576 E250.00548
G1 X138.57 Y20.778 E250.02812
G1 X139.258 Y21.16 E250.05429
G1 X139.762 Y21.74 E250.07985
G1 X146.596 Y33.576 E250.53443
G1 X160.46 Y33.576 E250.99554
G1 X161.109 Y33.735 E251.01777
G1 X161.796 Y34.09 E251.04349
G1 X162.262 Y34.593 E251.0663
G1 X162.676 Y35.287 E251.09317
G1 X162.802 Y36.044 E251.1187
G1 X162.812 Y186.424 E256.12036
G1 X162.653 Y187.073 E256.14258
G1 X162.298 Y187.76 E256.1683
G1 X161.795 Y188.226 E256.19111
G1 X161.101 Y188.64 E256.21798
G1 X160.344 Y188.766 E256.24351
G1 X60.124 Y188.776 E259.57684
G1 X59.341 Y188.586 E259.60364
G1 X59.197 Y188.519 E259.60892
G1 X58.687 Y188.136 E259.63013
G1 X58.256 Y187.696 E259.65062
G1 X58.015 Y187.236 E259.66789
G1 X57.229 Y187.212 E259.69405
G1 X56.537 Y187.025 E259.71789
G1 X55.847 Y186.574 E259.7453
G1 X55.435 Y186.056 E259.76732
G1 X5.351 Y99.324 E263.09846
G1 X5.131 Y98.663 E263.12163
M204 S2000
G0 F7500 X5.527 Y98.585
M204 S500
G1 F1500 X5.491 Y97.9 E263.14444
G1 X5.66 Y97.356 E263.16339
G1 X5.988 Y96.765 E263.18587
G1 X6.486 Y96.332 E263.20782
G1 X136.606 Y21.207 E268.20515
G1 X137.183 Y21.015 E268.22537
G1 X137.868 Y20.979 E268.24819
