;FLAVOR:Marlin
;TIME:1623
;Filament used: 1.2196m
;Layer height: 0.2
;MINX:67.191
;MINY:93.2
;MINZ:0.2
;MAXX:152.809
;MAXY:126.8
;MAXZ:5
;TARGET_MACHINE.NAME:Creality Ender-3 S1 Pro
;Generated with Cura_SteamEngine 5.7.2
M104 S200
M105
M109 S200
M82 ;absolute extrusion mode
; Ender 3 S1 Pro Start G-code
; M413 S0 ; Disable power loss recovery
G92 E0 ; Reset Extruder

; Prep surfaces before auto home for better accuracy
M140 S60
M104 S200

G28 ; Home all axes
G1 Z10.0 F3000 ; Move Z Axis up little to prevent scratching of Heat Bed
G1 X0 Y0

M190 S60
M109 S200

G1 X0.1 Y20 Z0.3 F5000.0 ; Move to start position
G1 X0.1 Y200.0 Z0.3 F1500.0 E15 ; Draw the first line
G1 X0.4 Y200.0 Z0.3 F5000.0 ; Move to side a little
G1 X0.4 Y20 Z0.3 F1500.0 E30 ; Draw the second line
G92 E0 ; Reset Extruder
G1 Z2.0 F3000 ; Move Z Axis up little to prevent scratching of Heat Bed
G1 X5 Y20 Z0.3 F5000.0 ; Move over to prevent blob squish

G92 E0
G92 E0
G1 F2400 E-0.8
;LAYER_COUNT:25
;LAYER:0
M107
M204 S2000
G0 F7500 X70.28 Y94.764 Z0.2
M204 S500
;TYPE:SKIRT
G1 F2400 E0
G1 F1500 X72.303 Y93.557 E0.07835
G1 X74.021 Y93.275 E0.13626
G1 X145.853 Y93.2 E2.5254
G1 X147.749 Y93.666 E2.59034
G1 X149.781 Y94.721 E2.66649
G1 X151.237 Y96.28 E2.73744
G1 X152.292 Y98.055 E2.80612
G1 X152.542 Y98.971 E2.8377
G1 X152.786 Y100.759 E2.89772
G1 X152.809 Y102.571 E2.95799
G1 X152.348 Y104.442 E3.02208
G1 X151.281 Y106.497 E3.09909
G1 X149.72 Y107.956 E3.17016
G1 X147.697 Y109.163 E3.24851
G1 X145.979 Y109.445 E3.30642
G1 X74.147 Y109.521 E5.69556
G1 X72.251 Y109.055 E5.7605
G1 X70.219 Y108 E5.83665
G1 X68.763 Y106.441 E5.9076
G1 X67.708 Y104.666 E5.97628
G1 X67.458 Y103.75 E6.00786
G1 X67.214 Y101.962 E6.06788
G1 X67.191 Y100.149 E6.12818
G1 X67.652 Y98.278 E6.19227
G1 X68.719 Y96.223 E6.26929
G1 X70.28 Y94.764 E6.34035
M204 S2000
G0 F7500 X70.519 Y95.088
M204 S500
G1 F1500 X72.443 Y93.94 E6.41487
G1 X74.086 Y93.67 E6.47025
G1 X145.807 Y93.6 E8.8557
G1 X147.606 Y94.042 E8.91732
G1 X149.536 Y95.044 E8.98964
G1 X150.915 Y96.521 E9.05685
G1 X151.921 Y98.214 E9.12235
G1 X152.146 Y99.026 E9.15038
G1 X152.386 Y100.764 E9.20873
G1 X152.408 Y102.526 E9.26734
G1 X151.971 Y104.3 E9.32811
G1 X150.958 Y106.252 E9.40125
G1 X149.481 Y107.632 E9.46849
G1 X147.557 Y108.78 E9.543
G1 X145.914 Y109.05 E9.59838
G1 X74.193 Y109.121 E11.98383
G1 X72.394 Y108.679 E12.04545
G1 X70.464 Y107.677 E12.11778
G1 X69.085 Y106.2 E12.18498
G1 X68.079 Y104.507 E12.25048
G1 X67.854 Y103.695 E12.27851
G1 X67.614 Y101.957 E12.33686
G1 X67.592 Y100.194 E12.39551
G1 X68.029 Y98.42 E12.45627
G1 X69.042 Y96.468 E12.52942
G1 X70.519 Y95.088 E12.59665
M204 S2000
G0 F7500 X70.761 Y95.409
M204 S500
G1 F1500 X72.581 Y94.323 E12.66714
G1 X74.151 Y94.065 E12.72006
G1 X145.76 Y94 E15.10179
G1 X147.464 Y94.419 E15.16015
G1 X149.291 Y95.367 E15.22861
G1 X150.593 Y96.762 E15.29208
G1 X151.549 Y98.37 E15.3543
G1 X151.76 Y99.133 E15.38063
G1 X151.986 Y100.769 E15.43556
G1 X152.007 Y102.481 E15.4925
G1 X151.594 Y104.158 E15.54995
G1 X150.635 Y106.007 E15.61922
G1 X149.239 Y107.311 E15.68276
G1 X147.419 Y108.397 E15.75325
G1 X145.849 Y108.655 E15.80617
G1 X74.24 Y108.721 E18.1879
G1 X72.536 Y108.302 E18.24626
G1 X70.709 Y107.354 E18.31472
G1 X69.407 Y105.959 E18.37819
G1 X68.451 Y104.351 E18.44041
G1 X68.24 Y103.588 E18.46674
G1 X68.014 Y101.952 E18.52167
G1 X67.993 Y100.239 E18.57865
G1 X68.406 Y98.562 E18.63609
G1 X69.365 Y96.713 E18.70537
G1 X70.761 Y95.409 E18.7689
M204 S2000
G0 F7500 X71.003 Y95.73
M204 S500
G1 F1500 X72.719 Y94.706 E18.83537
G1 X74.216 Y94.46 E18.88583
G1 X145.714 Y94.4 E21.26386
G1 X147.321 Y94.795 E21.3189
G1 X149.046 Y95.69 E21.38354
G1 X150.269 Y97.001 E21.44317
G1 X151.178 Y98.529 E21.5023
G1 X151.374 Y99.239 E21.5268
G1 X151.586 Y100.774 E21.57834
G1 X151.606 Y102.436 E21.63362
G1 X151.217 Y104.016 E21.68774
G1 X150.312 Y105.762 E21.75315
G1 X148.997 Y106.99 E21.813
G1 X147.281 Y108.014 E21.87946
G1 X145.784 Y108.26 E21.92992
G1 X74.286 Y108.321 E24.30795
G1 X72.679 Y107.926 E24.36299
G1 X70.954 Y107.031 E24.42763
G1 X69.731 Y105.72 E24.48726
G1 X68.822 Y104.192 E24.54639
G1 X68.626 Y103.482 E24.57089
G1 X68.414 Y101.947 E24.62243
G1 X68.394 Y100.284 E24.67775
G1 X68.783 Y98.704 E24.73187
G1 X69.688 Y96.958 E24.79728
G1 X71.003 Y95.73 E24.85712
M204 S2000
G0 F7500 X71.245 Y96.051
M204 S500
G1 F1500 X72.857 Y95.089 E24.91956
G1 X74.281 Y94.855 E24.96755
G1 X145.668 Y94.8 E27.3419
G1 X147.178 Y95.171 E27.39361
G1 X148.799 Y96.012 E27.45435
G1 X149.949 Y97.245 E27.51043
G1 X150.806 Y98.686 E27.56619
G1 X150.988 Y99.345 E27.58893
G1 X151.186 Y100.779 E27.63708
G1 X151.205 Y102.392 E27.69073
G1 X150.841 Y103.873 E27.74146
G1 X149.989 Y105.517 E27.80304
G1 X148.755 Y106.669 E27.85919
G1 X147.143 Y107.631 E27.92163
G1 X145.719 Y107.865 E27.96962
G1 X74.332 Y107.921 E30.34397
G1 X72.822 Y107.55 E30.39568
G1 X71.201 Y106.709 E30.45642
G1 X70.051 Y105.476 E30.5125
G1 X69.194 Y104.035 E30.56826
G1 X69.012 Y103.376 E30.591
G1 X68.814 Y101.942 E30.63915
G1 X68.795 Y100.328 E30.69284
G1 X69.159 Y98.847 E30.74356
G1 X70.011 Y97.203 E30.80515
G1 X71.245 Y96.051 E30.86129
M204 S2000
G0 F7500 X71.487 Y96.372
M204 S500
G1 F1500 X72.995 Y95.472 E30.9197
G1 X74.346 Y95.25 E30.96524
G1 X145.621 Y95.2 E33.33586
G1 X147.036 Y95.548 E33.38432
G1 X148.554 Y96.335 E33.44119
G1 X149.627 Y97.485 E33.49351
G1 X150.434 Y98.844 E33.54608
G1 X150.592 Y99.401 E33.56533
G1 X150.786 Y100.784 E33.61178
G1 X150.804 Y102.348 E33.66381
G1 X150.465 Y103.73 E33.71113
G1 X149.666 Y105.272 E33.7689
G1 X148.513 Y106.348 E33.82135
G1 X147.005 Y107.248 E33.87976
G1 X145.654 Y107.47 E33.9253
G1 X74.379 Y107.521 E36.29591
G1 X72.964 Y107.173 E36.34438
G1 X71.446 Y106.386 E36.40125
G1 X70.373 Y105.236 E36.45356
G1 X69.566 Y103.877 E36.50613
G1 X69.408 Y103.32 E36.52539
G1 X69.214 Y101.937 E36.57184
G1 X69.196 Y100.372 E36.62389
G1 X69.535 Y98.99 E36.67122
G1 X70.334 Y97.448 E36.72899
G1 X71.487 Y96.372 E36.78144
M204 S2000
G0 F7500 X71.729 Y96.693
M204 S500
G1 F1500 X73.133 Y95.855 E36.83582
G1 X74.411 Y95.645 E36.8789
G1 X145.575 Y95.6 E39.24582
G1 X146.893 Y95.924 E39.29097
G1 X148.307 Y96.657 E39.34394
G1 X149.306 Y97.728 E39.39265
G1 X150.063 Y99.003 E39.44197
G1 X150.196 Y99.458 E39.45774
G1 X150.386 Y100.788 E39.50242
G1 X150.403 Y102.3 E39.55271
G1 X150.087 Y103.591 E39.59692
G1 X149.343 Y105.027 E39.65071
G1 X148.271 Y106.027 E39.69947
G1 X146.867 Y106.865 E39.75385
G1 X145.589 Y107.075 E39.79693
G1 X74.425 Y107.121 E42.16385
G1 X73.107 Y106.797 E42.209
G1 X71.693 Y106.064 E42.26197
G1 X70.694 Y104.993 E42.31068
G1 X69.937 Y103.718 E42.36
G1 X69.804 Y103.263 E42.37577
G1 X69.614 Y101.933 E42.42045
G1 X69.597 Y100.42 E42.47078
G1 X69.913 Y99.129 E42.51498
G1 X70.657 Y97.693 E42.56878
G1 X71.729 Y96.693 E42.61754
M204 S2000
G0 F7500 X71.974 Y97.012
M204 S500
G1 F1500 X73.271 Y96.238 E42.66777
G1 X74.476 Y96.04 E42.70839
G1 X145.529 Y96 E45.07162
G1 X146.75 Y96.3 E45.11344
G1 X148.06 Y96.979 E45.16251
G1 X148.985 Y97.971 E45.20763
G1 X149.693 Y99.163 E45.25374
G1 X149.8 Y99.516 E45.26601
G1 X149.986 Y100.792 E45.3089
G1 X150.002 Y102.252 E45.35746
G1 X149.709 Y103.452 E45.39854
G1 X149.021 Y104.78 E45.44829
G1 X148.026 Y105.708 E45.49354
G1 X146.729 Y106.482 E45.54378
G1 X145.524 Y106.68 E45.58439
G1 X74.471 Y106.721 E47.94763
G1 X73.25 Y106.421 E47.98944
G1 X71.94 Y105.742 E48.03852
G1 X71.015 Y104.75 E48.08363
G1 X70.307 Y103.558 E48.12974
G1 X70.2 Y103.205 E48.14201
G1 X70.014 Y101.929 E48.1849
G1 X69.998 Y100.468 E48.2335
G1 X70.291 Y99.268 E48.27458
G1 X70.979 Y97.94 E48.32433
G1 X71.974 Y97.012 E48.36958
M204 S2000
G0 F7500 X72.216 Y97.334
M204 S500
G1 F1500 X73.411 Y96.621 E48.41586
G1 X74.541 Y96.435 E48.45395
G1 X145.483 Y96.4 E50.81349
G1 X146.607 Y96.676 E50.85199
G1 X147.813 Y97.301 E50.89717
G1 X148.664 Y98.214 E50.93868
G1 X149.324 Y99.325 E50.98166
G1 X149.404 Y99.575 E50.99039
G1 X149.586 Y100.796 E51.03145
G1 X149.601 Y102.204 E51.07828
G1 X149.331 Y103.313 E51.11625
G1 X148.699 Y104.533 E51.16194
G1 X147.784 Y105.386 E51.20355
G1 X146.589 Y106.099 E51.24983
G1 X145.459 Y106.285 E51.28792
G1 X74.517 Y106.321 E53.64746
G1 X73.393 Y106.045 E53.68596
G1 X72.187 Y105.42 E53.73114
G1 X71.336 Y104.507 E53.77265
G1 X70.676 Y103.396 E53.81563
G1 X70.596 Y103.146 E53.82436
G1 X70.414 Y101.925 E53.86542
G1 X70.399 Y100.516 E53.91229
G1 X70.669 Y99.407 E53.95025
G1 X71.301 Y98.187 E53.99595
G1 X72.216 Y97.334 E54.03755
M204 S2000
G0 F7500 X72.458 Y97.656
M204 S500
G1 F1500 X73.551 Y97.004 E54.07988
G1 X74.606 Y96.83 E54.11545
G1 X145.436 Y96.8 E56.47126
G1 X146.465 Y97.053 E56.50651
G1 X147.566 Y97.623 E56.54774
G1 X148.343 Y98.457 E56.58565
G1 X148.957 Y99.49 E56.62562
G1 X149.008 Y99.634 E56.6307
G1 X149.19 Y100.855 E56.67176
G1 X149.2 Y102.157 E56.71507
G1 X148.953 Y103.173 E56.74985
G1 X148.377 Y104.286 E56.79153
G1 X147.542 Y105.064 E56.82949
G1 X146.449 Y105.716 E56.87182
G1 X145.394 Y105.89 E56.90738
G1 X74.564 Y105.921 E59.2632
G1 X73.535 Y105.668 E59.29844
G1 X72.434 Y105.098 E59.33968
G1 X71.657 Y104.264 E59.37759
G1 X71.043 Y103.231 E59.41756
G1 X70.992 Y103.087 E59.42264
G1 X70.81 Y101.866 E59.4637
G1 X70.8 Y100.563 E59.50704
G1 X71.047 Y99.547 E59.54181
G1 X71.623 Y98.434 E59.5835
G1 X72.458 Y97.656 E59.62145
M204 S2000
G0 F7500 X72.7 Y97.978
M204 S500
G1 F1500 X73.691 Y97.387 E59.65983
G1 X74.671 Y97.225 E59.69287
G1 X145.39 Y97.2 E62.04499
G1 X146.322 Y97.429 E62.07691
G1 X147.319 Y97.945 E62.11425
G1 X148.022 Y98.7 E62.14856
G1 X148.613 Y99.694 E62.18703
G1 X148.79 Y100.858 E62.22619
G1 X148.8 Y102.109 E62.2678
G1 X148.575 Y103.034 E62.29946
G1 X148.055 Y104.039 E62.33709
G1 X147.3 Y104.742 E62.37141
G1 X146.309 Y105.333 E62.40978
G1 X145.329 Y105.495 E62.44282
G1 X74.61 Y105.521 E64.79494
G1 X73.678 Y105.292 E64.82686
G1 X72.681 Y104.776 E64.8642
G1 X71.978 Y104.021 E64.89851
G1 X71.387 Y103.027 E64.93698
G1 X71.21 Y101.863 E64.97614
G1 X71.2 Y100.611 E65.01778
G1 X71.425 Y99.686 E65.04944
G1 X71.945 Y98.681 E65.08708
G1 X72.7 Y97.978 E65.12139
M204 S2000
G0 F7500 X72.939 Y98.302
M204 S500
G1 F1500 X73.831 Y97.77 E65.15593
G1 X74.736 Y97.62 E65.18644
G1 X145.344 Y97.6 E67.53488
G1 X146.179 Y97.805 E67.56347
G1 X147.074 Y98.268 E67.59699
G1 X147.698 Y98.939 E67.62746
G1 X148.23 Y99.833 E67.66207
G1 X148.39 Y100.861 E67.69667
G1 X148.4 Y102.061 E67.73658
G1 X148.197 Y102.895 E67.76513
G1 X147.732 Y103.794 E67.7988
G1 X147.061 Y104.418 E67.82927
G1 X146.169 Y104.95 E67.86382
G1 X145.264 Y105.1 E67.89433
G1 X74.656 Y105.121 E70.24276
G1 X73.821 Y104.916 E70.27136
G1 X72.926 Y104.453 E70.30487
G1 X72.302 Y103.782 E70.33535
G1 X71.77 Y102.888 E70.36995
G1 X71.61 Y101.86 E70.40455
G1 X71.6 Y100.659 E70.4445
G1 X71.803 Y99.825 E70.47305
G1 X72.268 Y98.926 E70.50671
G1 X72.939 Y98.302 E70.53719
M204 S2000
G0 F7500 X73.178 Y98.626
M204 S500
G1 F1500 X73.971 Y98.153 E70.5679
G1 X74.802 Y98.015 E70.59592
G1 X145.298 Y98 E72.94062
G1 X146.036 Y98.181 E72.9659
G1 X146.829 Y98.591 E72.99559
G1 X147.374 Y99.178 E73.02223
G1 X147.847 Y99.972 E73.05297
G1 X147.99 Y100.864 E73.08302
G1 X148 Y102.013 E73.12123
G1 X147.819 Y102.756 E73.14667
G1 X147.409 Y103.549 E73.17636
G1 X146.822 Y104.094 E73.203
G1 X146.029 Y104.567 E73.23371
G1 X145.198 Y104.705 E73.26173
G1 X74.702 Y104.721 E75.60644
G1 X73.964 Y104.54 E75.63171
G1 X73.171 Y104.13 E75.6614
G1 X72.626 Y103.543 E75.68804
G1 X72.153 Y102.749 E75.71878
G1 X72.01 Y101.857 E75.74883
G1 X72 Y100.707 E75.78708
G1 X72.181 Y99.964 E75.81251
G1 X72.591 Y99.171 E75.84221
G1 X73.178 Y98.626 E75.86885
M204 S2000
G0 F7500 X73.417 Y98.95
M204 S500
G1 F1500 X74.111 Y98.536 E75.89573
G1 X74.868 Y98.41 E75.92125
G1 X145.248 Y98.4 E78.2621
G1 X145.897 Y98.559 E78.28432
G1 X146.584 Y98.914 E78.31004
G1 X147.05 Y99.417 E78.33285
G1 X147.464 Y100.111 E78.35973
G1 X147.59 Y100.868 E78.38525
G1 X147.6 Y101.965 E78.42174
G1 X147.441 Y102.617 E78.44406
G1 X147.086 Y103.304 E78.46978
G1 X146.583 Y103.77 E78.49259
G1 X145.889 Y104.184 E78.51946
G1 X145.132 Y104.31 E78.54499
G1 X74.752 Y104.321 E80.88584
G1 X74.103 Y104.162 E80.90806
G1 X73.416 Y103.807 E80.93378
G1 X72.95 Y103.304 E80.95659
G1 X72.536 Y102.61 E80.98346
G1 X72.41 Y101.853 E81.00899
G1 X72.4 Y100.755 E81.04551
G1 X72.559 Y100.103 E81.06783
G1 X72.914 Y99.416 E81.09355
G1 X73.417 Y98.95 E81.11636
M204 S2000
G0 F7500 X73.656 Y99.274
M204 S500
G1 F1500 X74.251 Y98.919 E81.1394
G1 X74.934 Y98.805 E81.16243
G1 X145.198 Y98.8 E83.49942
G1 X145.758 Y98.937 E83.5186
G1 X146.338 Y99.237 E83.54032
G1 X146.726 Y99.656 E83.55931
G1 X147.081 Y100.251 E83.58235
G1 X147.195 Y100.934 E83.60538
G1 X147.2 Y101.917 E83.63808
G1 X147.063 Y102.478 E83.65729
G1 X146.763 Y103.058 E83.67901
G1 X146.344 Y103.446 E83.698
G1 X145.749 Y103.801 E83.72104
G1 X145.066 Y103.915 E83.74407
G1 X74.802 Y103.921 E86.08106
G1 X74.242 Y103.784 E86.10024
G1 X73.662 Y103.484 E86.12196
G1 X73.274 Y103.065 E86.14095
G1 X72.919 Y102.47 E86.164
G1 X72.805 Y101.787 E86.18703
G1 X72.8 Y100.803 E86.21975
G1 X72.937 Y100.242 E86.23896
G1 X73.237 Y99.662 E86.26068
G1 X73.656 Y99.274 E86.27967
M204 S2000
G0 F7500 X73.898 Y99.595
M204 S500
G1 F1500 X74.389 Y99.302 E86.29869
G1 X75 Y99.2 E86.31929
G1 X145.148 Y99.2 E88.65243
G1 X145.619 Y99.315 E88.66855
G1 X146.092 Y99.56 E88.68627
G1 X146.405 Y99.898 E88.70159
G1 X146.698 Y100.389 E88.72061
G1 X146.8 Y101 E88.74121
G1 X146.8 Y101.868 E88.77008
G1 X146.685 Y102.339 E88.78621
G1 X146.44 Y102.812 E88.80392
G1 X146.102 Y103.125 E88.81925
G1 X145.611 Y103.418 E88.83826
G1 X145 Y103.52 E88.85887
G1 X74.852 Y103.521 E91.192
G1 X74.381 Y103.406 E91.20812
G1 X73.908 Y103.161 E91.22584
G1 X73.595 Y102.823 E91.24116
G1 X73.302 Y102.332 E91.26018
G1 X73.2 Y101.721 E91.28078
G1 X73.2 Y100.852 E91.30969
G1 X73.315 Y100.381 E91.32581
G1 X73.56 Y99.908 E91.34353
G1 X73.898 Y99.595 E91.35885
M204 S2000
G0 F7500 X74.14 Y99.916
M204 S500
G1 F1500 X74.527 Y99.685 E91.37384
G1 X75 Y99.6 E91.38983
G1 X145.098 Y99.6 E93.7213
G1 X145.48 Y99.693 E93.73437
G1 X145.846 Y99.883 E93.74809
G1 X146.084 Y100.14 E93.75974
G1 X146.315 Y100.527 E93.77473
G1 X146.4 Y101 E93.79071
G1 X146.4 Y101.818 E93.81792
G1 X146.307 Y102.2 E93.831
G1 X146.117 Y102.566 E93.84471
G1 X145.86 Y102.804 E93.85636
G1 X145.473 Y103.035 E93.87135
G1 X145 Y103.12 E93.88734
G1 X74.902 Y103.121 E96.2188
G1 X74.52 Y103.028 E96.23188
G1 X74.154 Y102.838 E96.2456
G1 X73.916 Y102.581 E96.25725
G1 X73.685 Y102.194 E96.27224
G1 X73.6 Y101.721 E96.28822
G1 X73.6 Y100.902 E96.31546
G1 X73.693 Y100.52 E96.32854
G1 X73.883 Y100.154 E96.34225
G1 X74.14 Y99.916 E96.3539
M204 S2000
G0 F7500 X74.345 Y100.26
M204 S500
G1 F1500 X74.672 Y100.065 E96.36657
G1 X75 Y100 E96.37769
G1 X145.049 Y100 E98.70753
G1 X145.338 Y100.07 E98.71742
G1 X145.601 Y100.207 E98.72728
G1 X145.74 Y100.345 E98.7338
G1 X145.935 Y100.672 E98.74646
G1 X146 Y101 E98.75758
G1 X146 Y101.769 E98.78316
G1 X145.93 Y102.058 E98.79305
G1 X145.793 Y102.321 E98.80291
G1 X145.655 Y102.46 E98.80943
G1 X145.328 Y102.655 E98.82209
G1 X145 Y102.72 E98.83321
G1 X74.951 Y102.721 E101.16305
G1 X74.662 Y102.651 E101.17294
G1 X74.399 Y102.514 E101.1828
G1 X74.26 Y102.376 E101.18932
G1 X74.065 Y102.049 E101.20198
G1 X74 Y101.721 E101.2131
G1 X74 Y100.951 E101.23871
G1 X74.07 Y100.662 E101.2486
G1 X74.207 Y100.399 E101.25846
G1 X74.345 Y100.26 E101.26498
M204 S2000
G0 F7500 X74.839 Y100.881
M204 S500
G1 F1500 X75 Y100.8 E101.27097
G1 X145 Y100.8 E103.59918
G1 X145.119 Y100.839 E103.60335
G1 X145.2 Y101 E103.60934
G1 X145.2 Y101.72 E103.63329
G1 X145.161 Y101.839 E103.63746
G1 X145 Y101.92 E103.64345
G1 X75 Y101.921 E105.97166
G1 X74.881 Y101.882 E105.97582
G1 X74.8 Y101.721 E105.98182
G1 X74.8 Y101 E106.0058
G1 X74.839 Y100.881 E106.00996
M204 S2000
G0 F7500 X74.459 Y100.756
M204 S500
G1 F1500 X74.55 Y100.604 E106.01586
G1 X74.82 Y100.443 E106.02631
G1 X75 Y100.4 E106.03247
G1 X145 Y100.4 E108.36068
G1 X145.244 Y100.459 E108.36903
G1 X145.396 Y100.55 E108.37492
G1 X145.557 Y100.82 E108.38537
G1 X145.6 Y101 E108.39153
G1 X145.6 Y101.72 E108.41548
G1 X145.541 Y101.964 E108.42383
G1 X145.45 Y102.116 E108.42972
