;FLAVOR:Marlin
;TIME:18124
;Filament used: 20.5316m
;Layer height: 0.2
;MINX:52.2
;MINY:27.2
;MINZ:0.2
;MAXX:167.8
;MAXY:192.8
;MAXZ:19
;TARGET_MACHINE.NAME:Creality Ender-3 S1 Pro
;Generated with Cura_SteamEngine 5.7.2
M104 S200
M105
M109 S200
M82 ;absolute extrusion mode
; Ender 3 S1 Pro Start G-code
; M413 S0 ; Disable power loss recovery
G92 E0 ; Reset Extruder

; Prep surfaces before auto home for better accuracy
M140 S60
M104 S200

G28 ; Home all axes
G1 Z10.0 F3000 ; Move Z Axis up little to prevent scratching of Heat Bed
G1 X0 Y0

M190 S60
M109 S200

G1 X0.1 Y20 Z0.3 F5000.0 ; Move to start position
G1 X0.1 Y200.0 Z0.3 F1500.0 E15 ; Draw the first line
G1 X0.4 Y200.0 Z0.3 F5000.0 ; Move to side a little
G1 X0.4 Y20 Z0.3 F1500.0 E30 ; Draw the second line
G92 E0 ; Reset Extruder
G1 Z2.0 F3000 ; Move Z Axis up little to prevent scratching of Heat Bed
G1 X5 Y20 Z0.3 F5000.0 ; Move over to prevent blob squish

G92 E0
G92 E0
G1 F2400 E-0.8
;LAYER_COUNT:95
;LAYER:0
M107
M204 S2000
G0 F7500 X53.719 Y30.223 Z0.2
M204 S500
;TYPE:SKIRT
G1 F2400 E0
G1 F1500 X55.28 Y28.764 E0.07107
G1 X57.303 Y27.557 E0.14942
G1 X59.021 Y27.275 E0.20732
G1 X160.853 Y27.2 E3.59427
G1 X162.749 Y27.666 E3.65921
G1 X164.777 Y28.719 E3.73521
G1 X166.236 Y30.28 E3.80628
G1 X167.443 Y32.303 E3.88463
G1 X167.725 Y34.021 E3.94253
G1 X167.8 Y185.853 E8.99249
G1 X167.334 Y187.749 E9.05742
G1 X166.281 Y189.777 E9.13343
G1 X164.72 Y191.236 E9.20449
G1 X162.697 Y192.443 E9.28284
G1 X160.979 Y192.725 E9.34075
G1 X59.147 Y192.8 E12.7277
G1 X57.251 Y192.334 E12.79263
G1 X55.223 Y191.281 E12.86864
G1 X53.764 Y189.72 E12.9397
G1 X52.557 Y187.697 E13.01805
G1 X52.275 Y185.979 E13.07596
G1 X52.2 Y34.147 E18.12591
G1 X52.666 Y32.251 E18.19085
G1 X53.719 Y30.223 E18.26685
M204 S2000
G0 F7500 X54.042 Y30.468
M204 S500
G1 F1500 X55.519 Y29.088 E18.33408
G1 X57.443 Y27.94 E18.4086
G1 X59.086 Y27.67 E18.46398
G1 X160.807 Y27.6 E21.84724
G1 X162.606 Y28.042 E21.90885
G1 X164.532 Y29.042 E21.98103
G1 X165.912 Y30.519 E22.04826
G1 X167.06 Y32.443 E22.12278
G1 X167.33 Y34.086 E22.17816
G1 X167.4 Y185.807 E27.22442
G1 X166.958 Y187.606 E27.28604
G1 X165.958 Y189.532 E27.35821
G1 X164.481 Y190.912 E27.42544
G1 X162.557 Y192.06 E27.49996
G1 X160.914 Y192.33 E27.55534
G1 X59.193 Y192.4 E30.9386
G1 X57.394 Y191.958 E31.00021
G1 X55.468 Y190.958 E31.07239
G1 X54.088 Y189.481 E31.13962
G1 X52.94 Y187.557 E31.21414
G1 X52.67 Y185.914 E31.26952
G1 X52.6 Y34.193 E36.31578
G1 X53.042 Y32.394 E36.3774
G1 X54.042 Y30.468 E36.44957
M204 S2000
G0 F7500 X54.365 Y30.713
M204 S500
G1 F1500 X55.761 Y29.409 E36.51311
G1 X57.581 Y28.323 E36.5836
G1 X59.151 Y28.065 E36.63652
G1 X160.76 Y28 E40.01605
G1 X162.464 Y28.419 E40.07441
G1 X164.287 Y29.365 E40.14272
G1 X165.591 Y30.761 E40.20626
G1 X166.677 Y32.581 E40.27675
G1 X166.935 Y34.151 E40.32967
G1 X167 Y185.76 E45.37221
G1 X166.581 Y187.464 E45.43057
G1 X165.635 Y189.287 E45.49888
G1 X164.239 Y190.591 E45.56242
G1 X162.419 Y191.677 E45.63291
G1 X160.849 Y191.935 E45.68583
G1 X59.24 Y192 E49.06536
G1 X57.536 Y191.581 E49.12372
G1 X55.713 Y190.635 E49.19203
G1 X54.409 Y189.239 E49.25557
G1 X53.323 Y187.419 E49.32606
G1 X53.065 Y185.849 E49.37898
G1 X53 Y34.24 E54.42152
G1 X53.419 Y32.536 E54.47988
G1 X54.365 Y30.713 E54.54819
M204 S2000
G0 F7500 X54.688 Y30.958
M204 S500
G1 F1500 X56.003 Y29.73 E54.60803
G1 X57.719 Y28.706 E54.6745
G1 X59.216 Y28.46 E54.72495
G1 X160.714 Y28.4 E58.10079
G1 X162.321 Y28.795 E58.15583
G1 X164.042 Y29.688 E58.22032
G1 X165.27 Y31.003 E58.28016
G1 X166.294 Y32.719 E58.34663
G1 X166.54 Y34.216 E58.39708
G1 X166.6 Y185.714 E63.43593
G1 X166.205 Y187.321 E63.49097
G1 X165.312 Y189.042 E63.55546
G1 X163.997 Y190.27 E63.6153
G1 X162.281 Y191.294 E63.68176
G1 X160.784 Y191.54 E63.73222
G1 X59.286 Y191.6 E67.10806
G1 X57.679 Y191.205 E67.1631
G1 X55.958 Y190.312 E67.22759
G1 X54.73 Y188.997 E67.28743
G1 X53.706 Y187.281 E67.35389
G1 X53.46 Y185.784 E67.40435
G1 X53.4 Y34.286 E72.4432
G1 X53.795 Y32.679 E72.49824
G1 X54.688 Y30.958 E72.56272
M204 S2000
G0 F7500 X55.011 Y31.203
M204 S500
G1 F1500 X56.245 Y30.051 E72.61887
G1 X57.857 Y29.089 E72.68131
G1 X59.281 Y28.855 E72.72931
G1 X160.668 Y28.8 E76.10145
G1 X162.178 Y29.171 E76.15317
G1 X163.797 Y30.011 E76.21383
G1 X164.949 Y31.245 E76.26998
G1 X165.911 Y32.857 E76.33242
G1 X166.145 Y34.281 E76.38042
G1 X166.2 Y185.668 E81.41557
G1 X165.829 Y187.178 E81.46728
G1 X164.989 Y188.797 E81.52795
G1 X163.755 Y189.949 E81.5841
G1 X162.143 Y190.911 E81.64653
G1 X160.719 Y191.145 E81.69453
G1 X59.332 Y191.2 E85.06668
G1 X57.822 Y190.829 E85.11839
G1 X56.203 Y189.989 E85.17906
G1 X55.051 Y188.755 E85.23521
G1 X54.089 Y187.143 E85.29764
G1 X53.855 Y185.719 E85.34564
G1 X53.8 Y34.332 E90.38079
G1 X54.171 Y32.822 E90.43251
G1 X55.011 Y31.203 E90.49317
M204 S2000
G0 F7500 X55.334 Y31.448
M204 S500
G1 F1500 X56.487 Y30.372 E90.54563
G1 X57.995 Y29.472 E90.60404
G1 X59.346 Y29.25 E90.64958
G1 X160.621 Y29.2 E94.018
G1 X162.036 Y29.548 E94.06646
G1 X163.552 Y30.334 E94.12326
G1 X164.628 Y31.487 E94.17571
G1 X165.528 Y32.995 E94.23412
G1 X165.75 Y34.346 E94.27966
G1 X165.8 Y185.621 E99.31109
G1 X165.452 Y187.036 E99.35955
G1 X164.666 Y188.552 E99.41635
G1 X163.513 Y189.628 E99.4688
G1 X162.005 Y190.528 E99.52721
G1 X160.654 Y190.75 E99.57275
G1 X59.379 Y190.8 E102.94117
G1 X57.964 Y190.452 E102.98964
G1 X56.448 Y189.666 E103.04643
G1 X55.372 Y188.513 E103.09889
G1 X54.472 Y187.005 E103.1573
G1 X54.25 Y185.654 E103.20283
G1 X54.2 Y34.379 E108.23426
G1 X54.548 Y32.964 E108.28273
G1 X55.334 Y31.448 E108.33952
M204 S2000
G0 F7500 X55.657 Y31.693
M204 S500
G1 F1500 X56.729 Y30.693 E108.38828
G1 X58.133 Y29.855 E108.44266
G1 X59.411 Y29.645 E108.48574
G1 X160.575 Y29.6 E111.85047
G1 X161.893 Y29.924 E111.89561
G1 X163.307 Y30.657 E111.94858
G1 X164.307 Y31.729 E111.99734
G1 X165.145 Y33.133 E112.05173
G1 X165.355 Y34.411 E112.0948
G1 X165.4 Y185.575 E117.12254
G1 X165.076 Y186.893 E117.16768
G1 X164.343 Y188.307 E117.22065
G1 X163.271 Y189.307 E117.26941
G1 X161.867 Y190.145 E117.3238
G1 X160.589 Y190.355 E117.36687
G1 X59.425 Y190.4 E120.7316
G1 X58.107 Y190.076 E120.77674
G1 X56.693 Y189.343 E120.82972
G1 X55.693 Y188.271 E120.87848
G1 X54.855 Y186.867 E120.93286
G1 X54.645 Y185.589 E120.97594
G1 X54.6 Y34.425 E126.00367
G1 X54.924 Y33.107 E126.04881
G1 X55.657 Y31.693 E126.10179
M204 S2000
G0 F7500 X55.979 Y31.94
M204 S500
G1 F1500 X56.974 Y31.012 E126.14704
G1 X58.271 Y30.238 E126.19728
G1 X59.476 Y30.04 E126.23789
G1 X160.529 Y30 E129.59893
G1 X161.75 Y30.3 E129.64075
G1 X163.06 Y30.979 E129.68982
G1 X163.988 Y31.974 E129.73508
G1 X164.762 Y33.271 E129.78531
G1 X164.96 Y34.476 E129.82593
G1 X165 Y185.529 E134.84997
G1 X164.7 Y186.75 E134.89179
G1 X164.021 Y188.06 E134.94087
G1 X163.026 Y188.988 E134.98612
G1 X161.729 Y189.762 E135.03635
G1 X160.524 Y189.96 E135.07697
G1 X59.471 Y190 E138.43801
G1 X58.25 Y189.7 E138.47983
G1 X56.94 Y189.021 E138.5289
G1 X56.012 Y188.026 E138.57415
G1 X55.238 Y186.729 E138.62439
G1 X55.04 Y185.524 E138.66501
G1 X55 Y34.471 E143.68905
G1 X55.3 Y33.25 E143.73087
G1 X55.979 Y31.94 E143.77994
M204 S2000
G0 F7500 X56.301 Y32.187
M204 S500
G1 F1500 X57.216 Y31.334 E143.82155
G1 X58.411 Y30.621 E143.86783
G1 X59.541 Y30.435 E143.90592
G1 X160.483 Y30.4 E147.26327
G1 X161.607 Y30.676 E147.30176
G1 X162.813 Y31.301 E147.34694
G1 X163.666 Y32.216 E147.38855
G1 X164.379 Y33.411 E147.43483
G1 X164.565 Y34.541 E147.47292
G1 X164.6 Y185.483 E152.49327
G1 X164.324 Y186.607 E152.53177
G1 X163.699 Y187.813 E152.57694
G1 X162.784 Y188.666 E152.61855
G1 X161.589 Y189.379 E152.66483
G1 X160.459 Y189.565 E152.70292
G1 X59.517 Y189.6 E156.06027
G1 X58.393 Y189.324 E156.09876
G1 X57.187 Y188.699 E156.14394
G1 X56.334 Y187.784 E156.18555
G1 X55.621 Y186.589 E156.23183
G1 X55.435 Y185.459 E156.26992
G1 X55.4 Y34.517 E161.29027
G1 X55.676 Y33.393 E161.32877
G1 X56.301 Y32.187 E161.37394
M204 S2000
G0 F7500 X56.623 Y32.434
M204 S500
G1 F1500 X57.458 Y31.656 E161.4119
G1 X58.551 Y31.004 E161.45423
G1 X59.606 Y30.83 E161.4898
G1 X160.436 Y30.8 E164.84342
G1 X161.465 Y31.053 E164.87866
G1 X162.566 Y31.623 E164.9199
G1 X163.344 Y32.458 E164.95786
G1 X163.996 Y33.551 E165.00019
G1 X164.17 Y34.606 E165.03575
G1 X164.2 Y185.436 E170.05238
G1 X163.947 Y186.465 E170.08762
G1 X163.377 Y187.566 E170.12886
G1 X162.542 Y188.344 E170.16681
G1 X161.449 Y188.996 E170.20914
G1 X160.394 Y189.17 E170.24471
G1 X59.564 Y189.2 E173.59833
G1 X58.535 Y188.947 E173.63357
G1 X57.434 Y188.377 E173.67481
G1 X56.656 Y187.542 E173.71277
G1 X56.004 Y186.449 E173.7551
G1 X55.83 Y185.394 E173.79066
G1 X55.8 Y34.564 E178.80729
G1 X56.053 Y33.535 E178.84253
G1 X56.623 Y32.434 E178.88377
M204 S2000
G0 F7500 X56.945 Y32.681
M204 S500
G1 F1500 X57.7 Y31.978 E178.91808
G1 X58.691 Y31.387 E178.95645
G1 X59.671 Y31.225 E178.98949
G1 X160.39 Y31.2 E182.33942
G1 X161.322 Y31.429 E182.37134
G1 X162.319 Y31.945 E182.40868
G1 X163.022 Y32.7 E182.44299
G1 X163.613 Y33.691 E182.48137
G1 X163.775 Y34.671 E182.5144
G1 X163.8 Y185.39 E187.52734
G1 X163.571 Y186.322 E187.55926
G1 X163.055 Y187.319 E187.5966
G1 X162.3 Y188.022 E187.63091
G1 X161.309 Y188.613 E187.66929
G1 X160.329 Y188.775 E187.70232
G1 X59.61 Y188.8 E191.05225
G1 X58.678 Y188.571 E191.08417
G1 X57.681 Y188.055 E191.12151
G1 X56.978 Y187.3 E191.15582
G1 X56.387 Y186.309 E191.1942
G1 X56.225 Y185.329 E191.22724
G1 X56.2 Y34.61 E196.24017
G1 X56.429 Y33.678 E196.27209
G1 X56.945 Y32.681 E196.30943
M204 S2000
G0 F7500 X57.268 Y32.926
M204 S500
G1 F1500 X57.939 Y32.302 E196.33991
G1 X58.831 Y31.77 E196.37445
G1 X59.736 Y31.62 E196.40496
G1 X160.344 Y31.6 E199.7512
G1 X161.179 Y31.805 E199.77979
G1 X162.074 Y32.268 E199.81331
G1 X162.698 Y32.939 E199.84378
G1 X163.23 Y33.831 E199.87833
G1 X163.38 Y34.736 E199.90884
G1 X163.4 Y185.344 E204.91808
G1 X163.195 Y186.179 E204.94668
G1 X162.732 Y187.074 E204.98019
G1 X162.061 Y187.698 E205.01067
G1 X161.169 Y188.23 E205.04521
G1 X160.264 Y188.38 E205.07573
G1 X59.656 Y188.4 E208.42196
G1 X58.821 Y188.195 E208.45056
G1 X57.926 Y187.732 E208.48407
G1 X57.302 Y187.061 E208.51455
G1 X56.77 Y186.169 E208.54909
G1 X56.62 Y185.264 E208.57961
G1 X56.6 Y34.656 E213.58885
G1 X56.805 Y33.821 E213.61744
G1 X57.268 Y32.926 E213.65096
M204 S2000
G0 F7500 X57.591 Y33.171
M204 S500
G1 F1500 X58.178 Y32.626 E213.6776
G1 X58.971 Y32.153 E213.70831
G1 X59.802 Y32.015 E213.73633
G1 X160.298 Y32 E217.07884
G1 X161.036 Y32.181 E217.10411
G1 X161.829 Y32.591 E217.13381
G1 X162.374 Y33.178 E217.16045
G1 X162.847 Y33.971 E217.19116
G1 X162.985 Y34.802 E217.21918
G1 X163 Y185.298 E222.22469
G1 X162.819 Y186.036 E222.24997
G1 X162.409 Y186.829 E222.27966
G1 X161.822 Y187.374 E222.3063
G1 X161.029 Y187.847 E222.33701
G1 X160.198 Y187.985 E222.36503
G1 X59.702 Y188 E225.70754
G1 X58.964 Y187.819 E225.73281
G1 X58.171 Y187.409 E225.7625
G1 X57.626 Y186.822 E225.78914
G1 X57.153 Y186.029 E225.81986
G1 X57.015 Y185.198 E225.84787
G1 X57 Y34.702 E230.85339
G1 X57.181 Y33.964 E230.87866
G1 X57.591 Y33.171 E230.90836
M204 S2000
G0 F7500 X57.914 Y33.416
M204 S500
G1 F1500 X58.417 Y32.95 E230.93116
G1 X59.111 Y32.536 E230.95804
G1 X59.868 Y32.41 E230.98356
G1 X160.248 Y32.4 E234.32222
G1 X160.897 Y32.559 E234.34444
G1 X161.584 Y32.914 E234.37016
G1 X162.05 Y33.417 E234.39297
G1 X162.464 Y34.111 E234.41984
G1 X162.59 Y34.868 E234.44537
G1 X162.6 Y185.248 E239.44703
G1 X162.441 Y185.897 E239.46925
G1 X162.086 Y186.584 E239.49497
G1 X161.583 Y187.05 E239.51778
G1 X160.889 Y187.464 E239.54466
G1 X160.132 Y187.59 E239.57018
G1 X59.752 Y187.6 E242.90883
G1 X59.103 Y187.441 E242.93106
G1 X58.416 Y187.086 E242.95678
G1 X57.95 Y186.583 E242.97958
G1 X57.536 Y185.889 E243.00646
G1 X57.41 Y185.132 E243.03198
G1 X57.4 Y34.752 E248.03364
G1 X57.559 Y34.103 E248.05587
G1 X57.914 Y33.416 E248.08159
M204 S2000
G0 F7500 X58.237 Y33.662
M204 S500
G1 F1500 X58.656 Y33.274 E248.10058
G1 X59.251 Y32.919 E248.12363
G1 X59.934 Y32.805 E248.14666
G1 X160.198 Y32.8 E251.48145
G1 X160.758 Y32.937 E251.50063
G1 X161.338 Y33.237 E251.52234
G1 X161.726 Y33.656 E251.54134
G1 X162.081 Y34.251 E251.56438
G1 X162.195 Y34.934 E251.58741
G1 X162.2 Y185.198 E256.58521
G1 X162.063 Y185.758 E256.60439
G1 X161.763 Y186.338 E256.62611
G1 X161.344 Y186.726 E256.6451
G1 X160.749 Y187.081 E256.66815
G1 X160.066 Y187.195 E256.69118
G1 X59.802 Y187.2 E260.02597
G1 X59.242 Y187.063 E260.04515
G1 X58.662 Y186.763 E260.06686
G1 X58.274 Y186.344 E260.08586
G1 X57.919 Y185.749 E260.1089
G1 X57.805 Y185.066 E260.13193
G1 X57.8 Y34.802 E265.12973
G1 X57.937 Y34.242 E265.14891
G1 X58.237 Y33.662 E265.17063
M204 S2000
G0 F7500 X58.56 Y33.908
M204 S500
G1 F1500 X58.898 Y33.595 E265.18595
G1 X59.389 Y33.302 E265.20497
G1 X60 Y33.2 E265.22557
G1 X160.148 Y33.2 E268.55651
G1 X160.619 Y33.315 E268.57263
G1 X161.092 Y33.56 E268.59035
G1 X161.405 Y33.898 E268.60567
G1 X161.698 Y34.389 E268.62469
G1 X161.8 Y35 E268.64529
G1 X161.8 Y185.148 E273.63923
G1 X161.685 Y185.619 E273.65536
G1 X161.44 Y186.092 E273.67308
G1 X161.102 Y186.405 E273.6884
G1 X160.611 Y186.698 E273.70742
G1 X160 Y186.8 E273.72802
G1 X59.852 Y186.8 E277.05896
G1 X59.381 Y186.685 E277.07508
G1 X58.908 Y186.44 E277.0928
G1 X58.595 Y186.102 E277.10812
G1 X58.302 Y185.611 E277.12714
G1 X58.2 Y185 E277.14774
G1 X58.2 Y34.852 E282.14168
G1 X58.315 Y34.381 E282.15781
G1 X58.56 Y33.908 E282.17553
M204 S2000
G0 F7500 X58.883 Y34.154
M204 S500
G1 F1500 X59.14 Y33.916 E282.18718
G1 X59.527 Y33.685 E282.20217
G1 X60 Y33.6 E282.21815
G1 X160.098 Y33.6 E285.54742
G1 X160.48 Y33.693 E285.5605
G1 X160.846 Y33.883 E285.57422
G1 X161.084 Y34.14 E285.58587
G1 X161.315 Y34.527 E285.60086
G1 X161.4 Y35 E285.61684
G1 X161.4 Y185.098 E290.60912
G1 X161.307 Y185.48 E290.6222
G1 X161.117 Y185.846 E290.63591
G1 X160.86 Y186.084 E290.64756
G1 X160.473 Y186.315 E290.66255
G1 X160 Y186.4 E290.67854
G1 X59.902 Y186.4 E294.00781
G1 X59.52 Y186.307 E294.02089
G1 X59.154 Y186.117 E294.0346
G1 X58.916 Y185.86 E294.04625
G1 X58.685 Y185.473 E294.06124
G1 X58.6 Y185 E294.07723
G1 X58.6 Y34.902 E299.06951
G1 X58.693 Y34.52 E299.08258
G1 X58.883 Y34.154 E299.0963
M204 S2000
G0 F7500 X59.207 Y34.399
M204 S500
G1 F1500 X59.07 Y34.662 E299.10616
G1 X59 Y34.951 E299.11605
G1 X59 Y185 E304.1067
G1 X59.065 Y185.328 E304.11782
G1 X59.26 Y185.655 E304.13049
G1 X59.399 Y185.793 E304.137
G1 X59.662 Y185.93 E304.14687
G1 X59.951 Y186 E304.15676
G1 X160 Y186 E307.4844
G1 X160.328 Y185.935 E307.49552
G1 X160.655 Y185.74 E307.50818
G1 X160.793 Y185.601 E307.5147
G1 X160.93 Y185.338 E307.52456
G1 X161 Y185.049 E307.53445
G1 X161 Y35 E312.5251
G1 X160.935 Y34.672 E312.53622
G1 X160.74 Y34.345 E312.54889
G1 X160.601 Y34.207 E312.5554
G1 X160.338 Y34.07 E312.56526
G1 X160.049 Y34 E312.57515
G1 X60 Y34 E315.9028
G1 X59.672 Y34.065 E315.91392
G1 X59.345 Y34.26 E315.92658
G1 X59.207 Y34.399 E315.9331
M204 S2000
G0 F7500 X59.839 Y34.881
M204 S500
G1 F1500 X60 Y34.8 E315.93909
G1 X160 Y34.8 E319.2651
G1 X160.119 Y34.839 E319.26927
G1 X160.2 Y35 E319.27526
G1 X160.2 Y185 E324.26428
G1 X160.161 Y185.119 E324.26845
G1 X160 Y185.2 E324.27444
G1 X60 Y185.2 E327.60046
G1 X59.881 Y185.161 E327.60462
G1 X59.8 Y185 E327.61062
G1 X59.8 Y35 E332.59964
G1 X59.839 Y34.881 E332.6038
M204 S2000
G0 F7500 X59.459 Y34.756
M204 S500
G1 F1500 X59.55 Y34.604 E332.60969
G1 X59.82 Y34.443 E332.62015
G1 X60 Y34.4 E332.6263
G1 X160 Y34.4 E335.95232
G1 X160.244 Y34.459 E335.96067
G1 X160.396 Y34.55 E335.96656
G1 X160.557 Y34.82 E335.97702
G1 X160.6 Y35 E335.98317
G1 X160.6 Y185 E340.97219
G1 X160.541 Y185.244 E340.98054
G1 X160.45 Y185.396 E340.98643
G1 X160.18 Y185.557 E340.99689
G1 X160 Y185.6 E341.00304
G1 X60 Y185.6 E344.32906
G1 X59.756 Y185.541 E344.33741
G1 X59.604 Y185.45 E344.3433
G1 X59.443 Y185.18 E344.35375
G1 X59.4 Y185 E344.35991
G1 X59.4 Y35 E349.34893
G1 X59.459 Y34.756 E349.35728
M204 S2000
G1 F2400 E348.55728
;MESH:Roof.stl
G0 F7500 X60.8 Y35.8
G0 X159.4 Y184.4
M204 S500
;TYPE:WALL-INNER
G1 F2400 E349.35728
G1 F1500 X159.4 Y35.6 E354.30639
G1 X60.6 Y35.6 E357.59249
G1 X60.6 Y184.4 E362.5416
