;FLAVOR:Marlin
;TIME:3159
;Filament used: 3.13339m
;Layer height: 0.2
;MINX:66.2
;MINY:76.103
;MINZ:0.2
;MAXX:153.8
;MAXY:146.704
;MAXZ:9
;TARGET_MACHINE.NAME:Creality Ender-3 S1 Pro
;Generated with Cura_SteamEngine 5.7.2
M104 S200
M105
M109 S200
M82 ;absolute extrusion mode
; Ender 3 S1 Pro Start G-code
; M413 S0 ; Disable power loss recovery
G92 E0 ; Reset Extruder

; Prep surfaces before auto home for better accuracy
M140 S60
M104 S200

G28 ; Home all axes
G1 Z10.0 F3000 ; Move Z Axis up little to prevent scratching of Heat Bed
G1 X0 Y0

M190 S60
M109 S200

G1 X0.1 Y20 Z0.3 F5000.0 ; Move to start position
G1 X0.1 Y200.0 Z0.3 F1500.0 E15 ; Draw the first line
G1 X0.4 Y200.0 Z0.3 F5000.0 ; Move to side a little
G1 X0.4 Y20 Z0.3 F1500.0 E30 ; Draw the second line
G92 E0 ; Reset Extruder
G1 Z2.0 F3000 ; Move Z Axis up little to prevent scratching of Heat Bed
G1 X5 Y20 Z0.3 F5000.0 ; Move over to prevent blob squish

G92 E0
G92 E0
G1 F2400 E-0.8
;LAYER_COUNT:45
;LAYER:0
M107
M204 S2000
G0 F7500 X69.28 Y77.667 Z0.2
M204 S500
;TYPE:SKIRT
G1 F2400 E0
G1 F1500 X71.303 Y76.46 E0.07835
G1 X73.021 Y76.178 E0.13626
G1 X146.853 Y76.103 E2.59192
G1 X148.749 Y76.569 E2.65686
G1 X150.777 Y77.622 E2.73286
G1 X152.236 Y79.183 E2.80393
G1 X153.443 Y81.206 E2.88228
G1 X153.725 Y82.924 E2.94018
G1 X153.8 Y139.757 E4.83046
G1 X153.334 Y141.653 E4.8954
G1 X152.281 Y143.681 E4.9714
G1 X150.72 Y145.14 E5.04246
G1 X148.697 Y146.347 E5.12082
G1 X146.979 Y146.629 E5.17872
G1 X73.147 Y146.704 E7.63439
G1 X71.251 Y146.238 E7.69932
G1 X69.223 Y145.185 E7.77533
G1 X67.764 Y143.624 E7.84639
G1 X66.557 Y141.601 E7.92474
G1 X66.275 Y139.883 E7.98265
G1 X66.2 Y83.05 E9.87292
G1 X66.666 Y81.154 E9.93786
G1 X67.719 Y79.126 E10.01386
G1 X69.28 Y77.667 E10.08493
M204 S2000
G0 F7500 X69.519 Y77.991
M204 S500
G1 F1500 X71.443 Y76.843 E10.15945
G1 X73.086 Y76.573 E10.21483
G1 X146.807 Y76.503 E12.6668
G1 X148.606 Y76.945 E12.72841
G1 X150.532 Y77.945 E12.80059
G1 X151.912 Y79.422 E12.86782
G1 X153.06 Y81.346 E12.94234
G1 X153.33 Y82.989 E12.99772
G1 X153.4 Y139.711 E14.8843
G1 X152.958 Y141.51 E14.94592
G1 X151.958 Y143.436 E15.0181
G1 X150.481 Y144.816 E15.08533
G1 X148.557 Y145.964 E15.15985
G1 X146.914 Y146.234 E15.21523
G1 X73.193 Y146.304 E17.6672
G1 X71.394 Y145.862 E17.72881
G1 X69.468 Y144.862 E17.80099
G1 X68.088 Y143.385 E17.86822
G1 X66.94 Y141.461 E17.94274
G1 X66.67 Y139.818 E17.99812
G1 X66.6 Y83.096 E19.8847
G1 X67.042 Y81.297 E19.94632
G1 X68.042 Y79.371 E20.01849
G1 X69.519 Y77.991 E20.08573
M204 S2000
G0 F7500 X69.761 Y78.312
M204 S500
G1 F1500 X71.581 Y77.226 E20.15622
G1 X73.151 Y76.968 E20.20914
G1 X146.76 Y76.903 E22.65738
G1 X148.464 Y77.322 E22.71575
G1 X150.287 Y78.268 E22.78406
G1 X151.591 Y79.664 E22.84759
G1 X152.677 Y81.484 E22.91808
G1 X152.935 Y83.054 E22.971
G1 X153 Y139.664 E24.85386
G1 X152.581 Y141.368 E24.91222
G1 X151.635 Y143.191 E24.98053
G1 X150.239 Y144.495 E25.04407
G1 X148.419 Y145.581 E25.11456
G1 X146.849 Y145.839 E25.16748
G1 X73.24 Y145.904 E27.61573
G1 X71.536 Y145.485 E27.67409
G1 X69.713 Y144.539 E27.7424
G1 X68.409 Y143.143 E27.80594
G1 X67.323 Y141.323 E27.87643
G1 X67.065 Y139.753 E27.92935
G1 X67 Y83.143 E29.81221
G1 X67.419 Y81.439 E29.87057
G1 X68.365 Y79.616 E29.93888
G1 X69.761 Y78.312 E30.00242
M204 S2000
G0 F7500 X70.003 Y78.633
M204 S500
G1 F1500 X71.719 Y77.609 E30.06888
G1 X73.216 Y77.363 E30.11934
G1 X146.714 Y77.303 E32.56389
G1 X148.321 Y77.698 E32.61893
G1 X150.042 Y78.591 E32.68342
G1 X151.27 Y79.906 E32.74326
G1 X152.294 Y81.622 E32.80973
G1 X152.54 Y83.119 E32.86019
G1 X152.6 Y139.618 E34.73935
G1 X152.205 Y141.225 E34.79439
G1 X151.312 Y142.946 E34.85888
G1 X149.997 Y144.174 E34.91872
G1 X148.281 Y145.198 E34.98519
G1 X146.784 Y145.444 E35.03564
G1 X73.286 Y145.504 E37.4802
G1 X71.679 Y145.109 E37.53524
G1 X69.958 Y144.216 E37.59973
G1 X68.73 Y142.901 E37.65957
G1 X67.706 Y141.185 E37.72603
G1 X67.46 Y139.688 E37.77649
G1 X67.4 Y83.189 E39.65566
G1 X67.795 Y81.582 E39.7107
G1 X68.688 Y79.861 E39.77518
G1 X70.003 Y78.633 E39.83503
M204 S2000
G0 F7500 X70.245 Y78.954
M204 S500
G1 F1500 X71.857 Y77.992 E39.89746
G1 X73.281 Y77.758 E39.94546
G1 X146.668 Y77.703 E42.38632
G1 X148.178 Y78.074 E42.43804
G1 X149.797 Y78.914 E42.4987
G1 X150.949 Y80.148 E42.55485
G1 X151.911 Y81.76 E42.61729
G1 X152.145 Y83.184 E42.66529
G1 X152.2 Y139.572 E44.54076
G1 X151.829 Y141.082 E44.59248
G1 X150.989 Y142.701 E44.65314
G1 X149.755 Y143.853 E44.70929
G1 X148.143 Y144.815 E44.77173
G1 X146.719 Y145.049 E44.81972
G1 X73.332 Y145.104 E47.26059
G1 X71.822 Y144.733 E47.3123
G1 X70.203 Y143.893 E47.37297
G1 X69.051 Y142.659 E47.42911
G1 X68.089 Y141.047 E47.49155
G1 X67.855 Y139.623 E47.53955
G1 X67.8 Y83.235 E49.41502
G1 X68.171 Y81.725 E49.46674
G1 X69.011 Y80.106 E49.5274
G1 X70.245 Y78.954 E49.58355
M204 S2000
G0 F7500 X70.487 Y79.275
M204 S500
G1 F1500 X71.995 Y78.375 E49.64196
G1 X73.346 Y78.153 E49.6875
G1 X146.621 Y78.103 E52.12464
G1 X148.036 Y78.451 E52.1731
G1 X149.552 Y79.237 E52.2299
G1 X150.628 Y80.39 E52.28235
G1 X151.528 Y81.898 E52.34076
G1 X151.75 Y83.249 E52.3863
G1 X151.8 Y139.525 E54.25805
G1 X151.452 Y140.94 E54.30651
G1 X150.666 Y142.456 E54.36331
G1 X149.513 Y143.532 E54.41576
G1 X148.005 Y144.432 E54.47417
G1 X146.654 Y144.654 E54.51971
G1 X73.379 Y144.704 E56.95685
G1 X71.964 Y144.356 E57.00531
G1 X70.448 Y143.57 E57.06211
G1 X69.372 Y142.417 E57.11456
G1 X68.472 Y140.909 E57.17297
G1 X68.25 Y139.558 E57.21851
G1 X68.2 Y83.282 E59.09026
G1 X68.548 Y81.867 E59.13872
G1 X69.334 Y80.351 E59.19552
G1 X70.487 Y79.275 E59.24797
M204 S2000
G0 F7500 X70.729 Y79.596
M204 S500
G1 F1500 X72.133 Y78.758 E59.30236
G1 X73.411 Y78.548 E59.34543
G1 X146.575 Y78.503 E61.77888
G1 X147.893 Y78.827 E61.82402
G1 X149.307 Y79.56 E61.87699
G1 X150.307 Y80.632 E61.92575
G1 X151.145 Y82.036 E61.98013
G1 X151.355 Y83.314 E62.02321
G1 X151.4 Y139.479 E63.89127
G1 X151.076 Y140.797 E63.93641
G1 X150.343 Y142.211 E63.98938
G1 X149.271 Y143.211 E64.03814
G1 X147.867 Y144.049 E64.09253
G1 X146.589 Y144.259 E64.1356
G1 X73.425 Y144.304 E66.56905
G1 X72.107 Y143.98 E66.61419
G1 X70.693 Y143.247 E66.66716
G1 X69.693 Y142.175 E66.71592
G1 X68.855 Y140.771 E66.7703
G1 X68.645 Y139.493 E66.81338
G1 X68.6 Y83.328 E68.68144
G1 X68.924 Y82.01 E68.72658
G1 X69.657 Y80.596 E68.77955
G1 X70.729 Y79.596 E68.82831
M204 S2000
G0 F7500 X70.974 Y79.915
M204 S500
G1 F1500 X72.271 Y79.141 E68.87855
G1 X73.476 Y78.943 E68.91916
G1 X146.529 Y78.903 E71.34892
G1 X147.75 Y79.203 E71.39074
G1 X149.06 Y79.882 E71.43981
G1 X149.988 Y80.877 E71.48506
G1 X150.762 Y82.174 E71.5353
G1 X150.96 Y83.379 E71.57592
G1 X151 Y139.433 E73.44028
G1 X150.7 Y140.654 E73.4821
G1 X150.021 Y141.964 E73.53117
G1 X149.026 Y142.892 E73.57643
G1 X147.729 Y143.666 E73.62666
G1 X146.524 Y143.864 E73.66728
G1 X73.471 Y143.904 E76.09703
G1 X72.25 Y143.604 E76.13885
G1 X70.94 Y142.925 E76.18793
G1 X70.012 Y141.93 E76.23318
G1 X69.238 Y140.633 E76.28342
G1 X69.04 Y139.428 E76.32403
G1 X69 Y83.374 E78.1884
G1 X69.3 Y82.153 E78.23021
G1 X69.979 Y80.843 E78.27929
G1 X70.974 Y79.915 E78.32454
M204 S2000
G0 F7500 X71.216 Y80.237
M204 S500
G1 F1500 X72.411 Y79.524 E78.37083
G1 X73.541 Y79.338 E78.40892
G1 X146.483 Y79.303 E80.83498
G1 X147.607 Y79.579 E80.87347
G1 X148.813 Y80.204 E80.91865
G1 X149.666 Y81.119 E80.96026
G1 X150.379 Y82.314 E81.00654
G1 X150.565 Y83.444 E81.04463
G1 X150.6 Y139.387 E82.9053
G1 X150.324 Y140.511 E82.9438
G1 X149.699 Y141.717 E82.98898
G1 X148.784 Y142.57 E83.03058
G1 X147.589 Y143.283 E83.07686
G1 X146.459 Y143.469 E83.11495
G1 X73.517 Y143.504 E85.54101
G1 X72.393 Y143.228 E85.57951
G1 X71.187 Y142.603 E85.62469
G1 X70.334 Y141.688 E85.66629
G1 X69.621 Y140.493 E85.71258
G1 X69.435 Y139.363 E85.75067
G1 X69.4 Y83.42 E87.61134
G1 X69.676 Y82.296 E87.64983
G1 X70.301 Y81.09 E87.69501
G1 X71.216 Y80.237 E87.73662
M204 S2000
G0 F7500 X71.458 Y80.559
M204 S500
G1 F1500 X72.551 Y79.907 E87.77895
G1 X73.606 Y79.733 E87.81451
G1 X146.436 Y79.703 E90.23685
G1 X147.465 Y79.956 E90.27209
G1 X148.566 Y80.526 E90.31333
G1 X149.344 Y81.361 E90.35129
G1 X149.996 Y82.454 E90.39362
G1 X150.17 Y83.509 E90.42918
G1 X150.2 Y139.34 E92.28613
G1 X149.947 Y140.369 E92.32137
G1 X149.377 Y141.47 E92.36261
G1 X148.542 Y142.248 E92.40057
G1 X147.449 Y142.9 E92.4429
G1 X146.394 Y143.074 E92.47846
G1 X73.564 Y143.104 E94.9008
G1 X72.535 Y142.851 E94.93604
G1 X71.434 Y142.281 E94.97728
G1 X70.656 Y141.446 E95.01523
G1 X70.004 Y140.353 E95.05756
G1 X69.83 Y139.298 E95.09313
G1 X69.8 Y83.467 E96.95007
G1 X70.053 Y82.438 E96.98532
G1 X70.623 Y81.337 E97.02655
G1 X71.458 Y80.559 E97.06451
M204 S2000
G0 F7500 X71.7 Y80.881
M204 S500
G1 F1500 X72.691 Y80.29 E97.10289
G1 X73.671 Y80.128 E97.13593
G1 X146.39 Y80.103 E99.55457
G1 X147.322 Y80.332 E99.58649
G1 X148.319 Y80.848 E99.62383
G1 X149.022 Y81.603 E99.65814
G1 X149.613 Y82.594 E99.69652
G1 X149.775 Y83.574 E99.72956
G1 X149.8 Y139.294 E101.58281
G1 X149.571 Y140.226 E101.61473
G1 X149.055 Y141.223 E101.65207
G1 X148.3 Y141.926 E101.68638
G1 X147.309 Y142.517 E101.72476
G1 X146.329 Y142.679 E101.7578
G1 X73.61 Y142.704 E104.17644
G1 X72.678 Y142.475 E104.20836
G1 X71.681 Y141.959 E104.2457
G1 X70.978 Y141.204 E104.28001
G1 X70.387 Y140.213 E104.31839
G1 X70.225 Y139.233 E104.35142
G1 X70.2 Y83.513 E106.20468
G1 X70.429 Y82.581 E106.2366
G1 X70.945 Y81.584 E106.27394
G1 X71.7 Y80.881 E106.30825
M204 S2000
G0 F7500 X71.939 Y81.205
M204 S500
G1 F1500 X72.831 Y80.673 E106.34279
G1 X73.736 Y80.523 E106.37331
G1 X146.344 Y80.503 E108.78826
G1 X147.179 Y80.708 E108.81685
G1 X148.074 Y81.171 E108.85037
G1 X148.698 Y81.842 E108.88085
G1 X149.23 Y82.734 E108.91539
G1 X149.38 Y83.639 E108.9459
G1 X149.4 Y139.248 E110.79546
G1 X149.195 Y140.083 E110.82406
G1 X148.732 Y140.978 E110.85758
G1 X148.061 Y141.602 E110.88805
G1 X147.169 Y142.134 E110.9226
G1 X146.264 Y142.284 E110.95311
G1 X73.656 Y142.304 E113.36806
G1 X72.821 Y142.099 E113.39666
G1 X71.926 Y141.636 E113.43017
G1 X71.302 Y140.965 E113.46065
G1 X70.77 Y140.073 E113.49519
G1 X70.62 Y139.168 E113.5257
G1 X70.6 Y83.559 E115.37527
G1 X70.805 Y82.724 E115.40386
G1 X71.268 Y81.829 E115.43738
G1 X71.939 Y81.205 E115.46785
M204 S2000
G0 F7500 X72.178 Y81.529
M204 S500
G1 F1500 X72.971 Y81.056 E115.49857
G1 X73.802 Y80.918 E115.52658
G1 X146.298 Y80.903 E117.93781
G1 X147.036 Y81.084 E117.96308
G1 X147.829 Y81.494 E117.99278
G1 X148.374 Y82.081 E118.01942
G1 X148.847 Y82.874 E118.05013
G1 X148.985 Y83.705 E118.07815
G1 X149 Y139.202 E119.92398
G1 X148.819 Y139.94 E119.94926
G1 X148.409 Y140.733 E119.97895
G1 X147.822 Y141.278 E120.00559
G1 X147.029 Y141.751 E120.0363
G1 X146.198 Y141.889 E120.06432
G1 X73.702 Y141.904 E122.47554
G1 X72.964 Y141.723 E122.50082
G1 X72.171 Y141.313 E122.53051
G1 X71.626 Y140.726 E122.55715
G1 X71.153 Y139.933 E122.58786
G1 X71.015 Y139.102 E122.61588
G1 X71 Y83.605 E124.46172
G1 X71.181 Y82.867 E124.48699
G1 X71.591 Y82.074 E124.51668
G1 X72.178 Y81.529 E124.54332
M204 S2000
G0 F7500 X72.417 Y81.853
M204 S500
G1 F1500 X73.111 Y81.439 E124.5702
G1 X73.868 Y81.313 E124.59573
G1 X146.248 Y81.303 E127.00309
G1 X146.897 Y81.462 E127.02532
G1 X147.584 Y81.817 E127.05104
G1 X148.05 Y82.32 E127.07385
G1 X148.464 Y83.014 E127.10072
G1 X148.59 Y83.771 E127.12625
G1 X148.6 Y139.152 E128.96823
G1 X148.441 Y139.801 E128.99045
G1 X148.086 Y140.488 E129.01617
G1 X147.583 Y140.954 E129.03898
G1 X146.889 Y141.368 E129.06585
G1 X146.132 Y141.494 E129.09138
G1 X73.752 Y141.504 E131.49875
G1 X73.103 Y141.345 E131.52097
G1 X72.416 Y140.99 E131.54669
G1 X71.95 Y140.487 E131.5695
G1 X71.536 Y139.793 E131.59638
G1 X71.41 Y139.036 E131.6219
G1 X71.4 Y83.655 E133.46388
G1 X71.559 Y83.006 E133.4861
G1 X71.914 Y82.319 E133.51182
G1 X72.417 Y81.853 E133.53463
M204 S2000
G0 F7500 X72.656 Y82.177
M204 S500
G1 F1500 X73.251 Y81.822 E133.55767
G1 X73.934 Y81.708 E133.58071
G1 X146.198 Y81.703 E135.98422
G1 X146.758 Y81.84 E136.00339
G1 X147.338 Y82.14 E136.02511
G1 X147.726 Y82.559 E136.0441
G1 X148.081 Y83.154 E136.06715
G1 X148.195 Y83.837 E136.09018
G1 X148.2 Y139.102 E137.9283
G1 X148.063 Y139.662 E137.94747
G1 X147.763 Y140.242 E137.96919
G1 X147.344 Y140.63 E137.98819
G1 X146.749 Y140.985 E138.01123
G1 X146.066 Y141.099 E138.03426
G1 X73.802 Y141.104 E140.43777
G1 X73.242 Y140.967 E140.45695
G1 X72.662 Y140.667 E140.47867
G1 X72.274 Y140.248 E140.49766
G1 X71.919 Y139.653 E140.5207
G1 X71.805 Y138.97 E140.54373
G1 X71.8 Y83.705 E142.38186
G1 X71.937 Y83.145 E142.40103
G1 X72.237 Y82.565 E142.42275
G1 X72.656 Y82.177 E142.44174
M204 S2000
G0 F7500 X72.898 Y82.498
M204 S500
G1 F1500 X73.389 Y82.205 E142.46076
G1 X74 Y82.103 E142.48136
G1 X146.148 Y82.103 E144.88102
G1 X146.619 Y82.218 E144.89714
G1 X147.092 Y82.463 E144.91486
G1 X147.405 Y82.801 E144.93018
G1 X147.698 Y83.292 E144.9492
G1 X147.8 Y83.903 E144.9698
G1 X147.8 Y139.052 E146.80406
G1 X147.685 Y139.523 E146.82019
G1 X147.44 Y139.996 E146.83791
G1 X147.102 Y140.309 E146.85323
G1 X146.611 Y140.602 E146.87225
G1 X146 Y140.704 E146.89285
G1 X73.852 Y140.704 E149.2925
G1 X73.381 Y140.589 E149.30863
G1 X72.908 Y140.344 E149.32634
G1 X72.595 Y140.006 E149.34167
G1 X72.302 Y139.515 E149.36068
G1 X72.2 Y138.904 E149.38129
G1 X72.2 Y83.755 E151.21555
G1 X72.315 Y83.284 E151.23168
G1 X72.56 Y82.811 E151.24939
G1 X72.898 Y82.498 E151.26471
M204 S2000
G0 F7500 X73.14 Y82.819
M204 S500
G1 F1500 X73.527 Y82.588 E151.27971
G1 X74 Y82.503 E151.29569
G1 X146.098 Y82.503 E153.69368
G1 X146.48 Y82.596 E153.70675
G1 X146.846 Y82.786 E153.72047
G1 X147.084 Y83.043 E153.73212
G1 X147.315 Y83.43 E153.74711
G1 X147.4 Y83.903 E153.7631
G1 X147.4 Y139.002 E155.5957
G1 X147.307 Y139.384 E155.60877
G1 X147.117 Y139.75 E155.62249
G1 X146.86 Y139.988 E155.63414
G1 X146.473 Y140.219 E155.64913
G1 X146 Y140.304 E155.66511
G1 X73.902 Y140.304 E158.0631
G1 X73.52 Y140.211 E158.07618
G1 X73.154 Y140.021 E158.08989
G1 X72.916 Y139.764 E158.10154
G1 X72.685 Y139.377 E158.11653
G1 X72.6 Y138.904 E158.13252
G1 X72.6 Y83.805 E159.96512
G1 X72.693 Y83.423 E159.97819
G1 X72.883 Y83.057 E159.99191
G1 X73.14 Y82.819 E160.00356
M204 S2000
G0 F7500 X73.345 Y83.163
M204 S500
G1 F1500 X73.207 Y83.302 E160.01008
G1 X73.07 Y83.565 E160.01994
G1 X73 Y83.854 E160.02983
G1 X73 Y138.904 E161.8608
G1 X73.065 Y139.232 E161.87192
G1 X73.26 Y139.559 E161.88458
G1 X73.399 Y139.697 E161.8911
G1 X73.662 Y139.834 E161.90096
G1 X73.951 Y139.904 E161.91085
G1 X146 Y139.904 E164.30721
G1 X146.328 Y139.839 E164.31833
G1 X146.655 Y139.644 E164.331
G1 X146.793 Y139.505 E164.33751
G1 X146.93 Y139.242 E164.34737
G1 X147 Y138.953 E164.35726
G1 X147 Y83.903 E166.18823
G1 X146.935 Y83.575 E166.19936
G1 X146.74 Y83.248 E166.21202
G1 X146.601 Y83.11 E166.21853
G1 X146.338 Y82.973 E166.2284
G1 X146.049 Y82.903 E166.23829
G1 X74 Y82.903 E168.63465
G1 X73.672 Y82.968 E168.64577
G1 X73.345 Y83.163 E168.65843
M204 S2000
G0 F7500 X73.839 Y83.784
M204 S500
G1 F1500 X74 Y83.703 E168.66442
G1 X146 Y83.703 E171.05915
G1 X146.119 Y83.742 E171.06332
G1 X146.2 Y83.903 E171.06931
G1 X146.2 Y138.904 E172.89865
G1 X146.161 Y139.023 E172.90282
G1 X146 Y139.104 E172.90881
G1 X74 Y139.104 E175.30354
G1 X73.881 Y139.065 E175.30771
G1 X73.8 Y138.904 E175.3137
G1 X73.8 Y83.903 E177.14304
G1 X73.839 Y83.784 E177.14721
M204 S2000
G0 F7500 X73.459 Y83.659
M204 S500
G1 F1500 X73.55 Y83.507 E177.1531
G1 X73.82 Y83.346 E177.16356
G1 X74 Y83.303 E177.16971
G1 X146 Y83.303 E179.56444
G1 X146.244 Y83.362 E179.57279
G1 X146.396 Y83.453 E179.57868
G1 X146.557 Y83.723 E179.58914
G1 X146.6 Y83.903 E179.59529
G1 X146.6 Y138.904 E181.42464
G1 X146.541 Y139.148 E181.43298
G1 X146.45 Y139.3 E181.43888
G1 X146.18 Y139.461 E181.44933
G1 X146 Y139.504 E181.45549
G1 X74 Y139.504 E183.85022
G1 X73.756 Y139.445 E183.85857
G1 X73.604 Y139.354 E183.86446
G1 X73.443 Y139.084 E183.87491
G1 X73.4 Y138.904 E183.88107
G1 X73.4 Y83.903 E185.71041
G1 X73.459 Y83.659 E185.71876
M204 S2000
G1 F2400 E184.91876
;MESH:Foot_Switch_V1-5.stl
G0 F7500 X74.8 Y84.7
G0 X145.4 Y138.304
M204 S500
;TYPE:WALL-INNER
G1 F2400 E185.71876
