;FLAVOR:Marlin
;TIME:14146
;Filament used: 12.6733m
;Layer height: 0.2
;MINX:62.2
;MINY:52.2
;MINZ:0.2
;MAXX:157.8
;MAXY:167.8
;MAXZ:29.4
;TARGET_MACHINE.NAME:Creality Ender-3 S1 Pro
;Generated with Cura_SteamEngine 5.7.2
M104 S200
M105
M109 S200
M82 ;absolute extrusion mode
; Ender 3 S1 Pro Start G-code
; M413 S0 ; Disable power loss recovery
G92 E0 ; Reset Extruder

; Prep surfaces before auto home for better accuracy
M140 S60
M104 S200

G28 ; Home all axes
G1 Z10.0 F3000 ; Move Z Axis up little to prevent scratching of Heat Bed
G1 X0 Y0

M190 S60
M109 S200

G1 X0.1 Y20 Z0.3 F5000.0 ; Move to start position
G1 X0.1 Y200.0 Z0.3 F1500.0 E15 ; Draw the first line
G1 X0.4 Y200.0 Z0.3 F5000.0 ; Move to side a little
G1 X0.4 Y20 Z0.3 F1500.0 E30 ; Draw the second line
G92 E0 ; Reset Extruder
G1 Z2.0 F3000 ; Move Z Axis up little to prevent scratching of Heat Bed
G1 X5 Y20 Z0.3 F5000.0 ; Move over to prevent blob squish

G92 E0
G92 E0
G1 F2400 E-0.8
;LAYER_COUNT:147
;LAYER:0
M107
M204 S2000
G0 F7500 X63.719 Y55.223 Z0.2
M204 S500
;TYPE:SKIRT
G1 F2400 E0
G1 F1500 X65.28 Y53.764 E0.07107
G1 X67.303 Y52.557 E0.14942
G1 X69.021 Y52.275 E0.20732
G1 X150.853 Y52.2 E2.92907
G1 X152.749 Y52.666 E2.99401
G1 X154.777 Y53.719 E3.07001
G1 X156.236 Y55.28 E3.14107
G1 X157.443 Y57.303 E3.21943
G1 X157.725 Y59.021 E3.27733
G1 X157.8 Y160.853 E6.66428
G1 X157.334 Y162.749 E6.72922
G1 X156.281 Y164.777 E6.80522
G1 X154.72 Y166.236 E6.87628
G1 X152.697 Y167.443 E6.95464
G1 X150.979 Y167.725 E7.01254
G1 X69.147 Y167.8 E9.73429
G1 X67.251 Y167.334 E9.79922
G1 X65.223 Y166.281 E9.87523
G1 X63.764 Y164.72 E9.94629
G1 X62.557 Y162.697 E10.02464
G1 X62.275 Y160.979 E10.08255
G1 X62.2 Y59.147 E13.4695
G1 X62.666 Y57.251 E13.53443
G1 X63.719 Y55.223 E13.61044
M204 S2000
G0 F7500 X64.042 Y55.468
M204 S500
G1 F1500 X65.519 Y54.088 E13.67767
G1 X67.443 Y52.94 E13.75219
G1 X69.086 Y52.67 E13.80756
G1 X150.807 Y52.6 E16.52562
G1 X152.606 Y53.042 E16.58723
G1 X154.532 Y54.042 E16.65941
G1 X155.912 Y55.519 E16.72664
G1 X157.06 Y57.443 E16.80116
G1 X157.33 Y59.086 E16.85654
G1 X157.4 Y160.807 E20.23979
G1 X156.958 Y162.606 E20.30141
G1 X155.958 Y164.532 E20.37359
G1 X154.481 Y165.912 E20.44082
G1 X152.557 Y167.06 E20.51534
G1 X150.914 Y167.33 E20.57072
G1 X69.193 Y167.4 E23.28877
G1 X67.394 Y166.958 E23.35038
G1 X65.468 Y165.958 E23.42256
G1 X64.088 Y164.481 E23.48979
G1 X62.94 Y162.557 E23.56431
G1 X62.67 Y160.914 E23.61969
G1 X62.6 Y59.193 E27.00294
G1 X63.042 Y57.394 E27.06456
G1 X64.042 Y55.468 E27.13674
M204 S2000
G0 F7500 X64.365 Y55.713
M204 S500
G1 F1500 X65.761 Y54.409 E27.20028
G1 X67.581 Y53.323 E27.27077
G1 X69.151 Y53.065 E27.32368
G1 X150.76 Y53 E30.03801
G1 X152.464 Y53.419 E30.09638
G1 X154.287 Y54.365 E30.16469
G1 X155.591 Y55.761 E30.22822
G1 X156.677 Y57.581 E30.29871
G1 X156.935 Y59.151 E30.35163
G1 X157 Y160.76 E33.73116
G1 X156.581 Y162.464 E33.78953
G1 X155.635 Y164.287 E33.85784
G1 X154.239 Y165.591 E33.92137
G1 X152.419 Y166.677 E33.99186
G1 X150.849 Y166.935 E34.04478
G1 X69.24 Y167 E36.75911
G1 X67.536 Y166.581 E36.81747
G1 X65.713 Y165.635 E36.88579
G1 X64.409 Y164.239 E36.94932
G1 X63.323 Y162.419 E37.01981
G1 X63.065 Y160.849 E37.07273
G1 X63 Y59.24 E40.45226
G1 X63.419 Y57.536 E40.51063
G1 X64.365 Y55.713 E40.57894
M204 S2000
G0 F7500 X64.688 Y55.958
M204 S500
G1 F1500 X66.003 Y54.73 E40.63878
G1 X67.719 Y53.706 E40.70524
G1 X69.216 Y53.46 E40.7557
G1 X150.714 Y53.4 E43.46634
G1 X152.321 Y53.795 E43.52138
G1 X154.042 Y54.688 E43.58586
G1 X155.27 Y56.003 E43.64571
G1 X156.294 Y57.719 E43.71217
G1 X156.54 Y59.216 E43.76263
G1 X156.6 Y160.714 E47.13847
G1 X156.205 Y162.321 E47.19351
G1 X155.312 Y164.042 E47.25799
G1 X153.997 Y165.27 E47.31784
G1 X152.281 Y166.294 E47.3843
G1 X150.784 Y166.54 E47.43476
G1 X69.286 Y166.6 E50.14539
G1 X67.679 Y166.205 E50.20043
G1 X65.958 Y165.312 E50.26492
G1 X64.73 Y163.997 E50.32476
G1 X63.706 Y162.281 E50.39123
G1 X63.46 Y160.784 E50.44169
G1 X63.4 Y59.286 E53.81752
G1 X63.795 Y57.679 E53.87256
G1 X64.688 Y55.958 E53.93705
M204 S2000
G0 F7500 X65.011 Y56.203
M204 S500
G1 F1500 X66.245 Y55.051 E53.9932
G1 X67.857 Y54.089 E54.05564
G1 X69.281 Y53.855 E54.10363
G1 X150.668 Y53.8 E56.81058
G1 X152.178 Y54.171 E56.86229
G1 X153.797 Y55.011 E56.92296
G1 X154.949 Y56.245 E56.97911
G1 X155.911 Y57.857 E57.04154
G1 X156.145 Y59.281 E57.08954
G1 X156.2 Y160.668 E60.46169
G1 X155.829 Y162.178 E60.5134
G1 X154.989 Y163.797 E60.57407
G1 X153.755 Y164.949 E60.63022
G1 X152.143 Y165.911 E60.69265
G1 X150.719 Y166.145 E60.74065
G1 X69.332 Y166.2 E63.44759
G1 X67.822 Y165.829 E63.49931
G1 X66.203 Y164.989 E63.55997
G1 X65.051 Y163.755 E63.61612
G1 X64.089 Y162.143 E63.67856
G1 X63.855 Y160.719 E63.72656
G1 X63.8 Y59.332 E67.0987
G1 X64.171 Y57.822 E67.15042
G1 X65.011 Y56.203 E67.21108
M204 S2000
G0 F7500 X65.334 Y56.448
M204 S500
G1 F1500 X66.487 Y55.372 E67.26354
G1 X67.995 Y54.472 E67.32195
G1 X69.346 Y54.25 E67.36749
G1 X150.621 Y54.2 E70.0707
G1 X152.036 Y54.548 E70.11917
G1 X153.552 Y55.334 E70.17597
G1 X154.628 Y56.487 E70.22842
G1 X155.528 Y57.995 E70.28683
G1 X155.75 Y59.346 E70.33237
G1 X155.8 Y160.621 E73.70079
G1 X155.452 Y162.036 E73.74925
G1 X154.666 Y163.552 E73.80605
G1 X153.513 Y164.628 E73.8585
G1 X152.005 Y165.528 E73.91691
G1 X150.654 Y165.75 E73.96245
G1 X69.379 Y165.8 E76.66567
G1 X67.964 Y165.452 E76.71413
G1 X66.448 Y164.666 E76.77093
G1 X65.372 Y163.513 E76.82338
G1 X64.472 Y162.005 E76.88179
G1 X64.25 Y160.654 E76.92733
G1 X64.2 Y59.379 E80.29575
G1 X64.548 Y57.964 E80.34422
G1 X65.334 Y56.448 E80.40101
M204 S2000
G0 F7500 X65.657 Y56.693
M204 S500
G1 F1500 X66.729 Y55.693 E80.44977
G1 X68.133 Y54.855 E80.50415
G1 X69.411 Y54.645 E80.54723
G1 X150.575 Y54.6 E83.24676
G1 X151.893 Y54.924 E83.2919
G1 X153.307 Y55.657 E83.34487
G1 X154.307 Y56.729 E83.39363
G1 X155.145 Y58.133 E83.44802
G1 X155.355 Y59.411 E83.49109
G1 X155.4 Y160.575 E86.85582
G1 X155.076 Y161.893 E86.90096
G1 X154.343 Y163.307 E86.95394
G1 X153.271 Y164.307 E87.0027
G1 X151.867 Y165.145 E87.05708
G1 X150.589 Y165.355 E87.10015
G1 X69.425 Y165.4 E89.79968
G1 X68.107 Y165.076 E89.84482
G1 X66.693 Y164.343 E89.8978
G1 X65.693 Y163.271 E89.94656
G1 X64.855 Y161.867 E90.00094
G1 X64.645 Y160.589 E90.04401
G1 X64.6 Y59.425 E93.40874
G1 X64.924 Y58.107 E93.45389
G1 X65.657 Y56.693 E93.50686
M204 S2000
G0 F7500 X65.979 Y56.94
M204 S500
G1 F1500 X66.974 Y56.012 E93.55211
G1 X68.271 Y55.238 E93.60235
G1 X69.476 Y55.04 E93.64296
G1 X150.529 Y55 E96.3388
G1 X151.75 Y55.3 E96.38062
G1 X153.06 Y55.979 E96.42969
G1 X153.988 Y56.974 E96.47495
G1 X154.762 Y58.271 E96.52518
G1 X154.96 Y59.476 E96.5658
G1 X155 Y160.529 E99.92683
G1 X154.7 Y161.75 E99.96865
G1 X154.021 Y163.06 E100.01773
G1 X153.026 Y163.988 E100.06298
G1 X151.729 Y164.762 E100.11322
G1 X150.524 Y164.96 E100.15383
G1 X69.471 Y165 E102.84967
G1 X68.25 Y164.7 E102.89149
G1 X66.94 Y164.021 E102.94056
G1 X66.012 Y163.026 E102.98582
G1 X65.238 Y161.729 E103.03605
G1 X65.04 Y160.524 E103.07667
G1 X65 Y59.471 E106.4377
G1 X65.3 Y58.25 E106.47952
G1 X65.979 Y56.94 E106.5286
M204 S2000
G0 F7500 X66.301 Y57.187
M204 S500
G1 F1500 X67.216 Y56.334 E106.5702
G1 X68.411 Y55.621 E106.61649
G1 X69.541 Y55.435 E106.65458
G1 X150.483 Y55.4 E109.34672
G1 X151.607 Y55.676 E109.38521
G1 X152.813 Y56.301 E109.43039
G1 X153.666 Y57.216 E109.472
G1 X154.379 Y58.411 E109.51828
G1 X154.565 Y59.541 E109.55637
G1 X154.6 Y160.483 E112.91372
G1 X154.324 Y161.607 E112.95221
G1 X153.699 Y162.813 E112.99739
G1 X152.784 Y163.666 E113.039
G1 X151.589 Y164.379 E113.08528
G1 X150.459 Y164.565 E113.12337
G1 X69.517 Y164.6 E115.81551
G1 X68.393 Y164.324 E115.854
G1 X67.187 Y163.699 E115.89918
G1 X66.334 Y162.784 E115.94079
G1 X65.621 Y161.589 E115.98707
G1 X65.435 Y160.459 E116.02516
G1 X65.4 Y59.517 E119.38251
G1 X65.676 Y58.393 E119.421
G1 X66.301 Y57.187 E119.46618
M204 S2000
G0 F7500 X66.623 Y57.434
M204 S500
G1 F1500 X67.458 Y56.656 E119.50414
G1 X68.551 Y56.004 E119.54647
G1 X69.606 Y55.83 E119.58203
G1 X150.436 Y55.8 E122.27045
G1 X151.465 Y56.053 E122.30569
G1 X152.566 Y56.623 E122.34693
G1 X153.344 Y57.458 E122.38489
G1 X153.996 Y58.551 E122.42722
G1 X154.17 Y59.606 E122.46278
G1 X154.2 Y160.436 E125.8164
G1 X153.947 Y161.465 E125.85165
G1 X153.377 Y162.566 E125.89288
G1 X152.542 Y163.344 E125.93084
G1 X151.449 Y163.996 E125.97317
G1 X150.394 Y164.17 E126.00873
G1 X69.564 Y164.2 E128.69715
G1 X68.535 Y163.947 E128.73239
G1 X67.434 Y163.377 E128.77363
G1 X66.656 Y162.542 E128.81159
G1 X66.004 Y161.449 E128.85392
G1 X65.83 Y160.394 E128.88948
G1 X65.8 Y59.564 E132.2431
G1 X66.053 Y58.535 E132.27835
G1 X66.623 Y57.434 E132.31958
M204 S2000
G0 F7500 X66.945 Y57.681
M204 S500
G1 F1500 X67.7 Y56.978 E132.35389
G1 X68.691 Y56.387 E132.39227
G1 X69.671 Y56.225 E132.42531
G1 X150.39 Y56.2 E135.11003
G1 X151.322 Y56.429 E135.14195
G1 X152.319 Y56.945 E135.17929
G1 X153.022 Y57.7 E135.2136
G1 X153.613 Y58.691 E135.25198
G1 X153.775 Y59.671 E135.28502
G1 X153.8 Y160.39 E138.63495
G1 X153.571 Y161.322 E138.66687
G1 X153.055 Y162.319 E138.7042
G1 X152.3 Y163.022 E138.73852
G1 X151.309 Y163.613 E138.77689
G1 X150.329 Y163.775 E138.80993
G1 X69.61 Y163.8 E141.49466
G1 X68.678 Y163.571 E141.52658
G1 X67.681 Y163.055 E141.56391
G1 X66.978 Y162.3 E141.59823
G1 X66.387 Y161.309 E141.6366
G1 X66.225 Y160.329 E141.66964
G1 X66.2 Y59.61 E145.01957
G1 X66.429 Y58.678 E145.05149
G1 X66.945 Y57.681 E145.08883
M204 S2000
G0 F7500 X67.268 Y57.926
M204 S500
G1 F1500 X67.939 Y57.302 E145.1193
G1 X68.831 Y56.77 E145.15385
G1 X69.736 Y56.62 E145.18436
G1 X150.344 Y56.6 E147.86539
G1 X151.179 Y56.805 E147.89399
G1 X152.074 Y57.268 E147.9275
G1 X152.698 Y57.939 E147.95798
G1 X153.23 Y58.831 E147.99252
G1 X153.38 Y59.736 E148.02303
G1 X153.4 Y160.344 E151.36927
G1 X153.195 Y161.179 E151.39787
G1 X152.732 Y162.074 E151.43138
G1 X152.061 Y162.698 E151.46186
G1 X151.169 Y163.23 E151.4964
G1 X150.264 Y163.38 E151.52691
G1 X69.656 Y163.4 E154.20795
G1 X68.821 Y163.195 E154.23654
G1 X67.926 Y162.732 E154.27006
G1 X67.302 Y162.061 E154.30054
G1 X66.77 Y161.169 E154.33508
G1 X66.62 Y160.264 E154.36559
G1 X66.6 Y59.656 E157.71183
G1 X66.805 Y58.821 E157.74042
G1 X67.268 Y57.926 E157.77394
M204 S2000
G0 F7500 X67.591 Y58.171
M204 S500
G1 F1500 X68.178 Y57.626 E157.80058
G1 X68.971 Y57.153 E157.83129
G1 X69.802 Y57.015 E157.85931
G1 X150.298 Y57 E160.53662
G1 X151.036 Y57.181 E160.56189
G1 X151.829 Y57.591 E160.59158
G1 X152.374 Y58.178 E160.61822
G1 X152.847 Y58.971 E160.64893
G1 X152.985 Y59.802 E160.67695
G1 X153 Y160.298 E164.01946
G1 X152.819 Y161.036 E164.04474
G1 X152.409 Y161.829 E164.07443
G1 X151.822 Y162.374 E164.10107
G1 X151.029 Y162.847 E164.13178
G1 X150.198 Y162.985 E164.1598
G1 X69.702 Y163 E166.83711
G1 X68.964 Y162.819 E166.86238
G1 X68.171 Y162.409 E166.89207
G1 X67.626 Y161.822 E166.91871
G1 X67.153 Y161.029 E166.94942
G1 X67.015 Y160.198 E166.97744
G1 X67 Y59.702 E170.31995
G1 X67.181 Y58.964 E170.34522
G1 X67.591 Y58.171 E170.37492
M204 S2000
G0 F7500 X67.914 Y58.416
M204 S500
G1 F1500 X68.417 Y57.95 E170.39772
G1 X69.111 Y57.536 E170.4246
G1 X69.868 Y57.41 E170.45012
G1 X150.248 Y57.4 E173.12357
G1 X150.897 Y57.559 E173.1458
G1 X151.584 Y57.914 E173.17152
G1 X152.05 Y58.417 E173.19432
G1 X152.464 Y59.111 E173.2212
G1 X152.59 Y59.868 E173.24673
G1 X152.6 Y160.248 E176.58538
G1 X152.441 Y160.897 E176.6076
G1 X152.086 Y161.584 E176.63332
G1 X151.583 Y162.05 E176.65613
G1 X150.889 Y162.464 E176.68301
G1 X150.132 Y162.59 E176.70853
G1 X69.752 Y162.6 E179.38198
G1 X69.103 Y162.441 E179.4042
G1 X68.416 Y162.086 E179.42992
G1 X67.95 Y161.583 E179.45273
G1 X67.536 Y160.889 E179.47961
G1 X67.41 Y160.132 E179.50513
G1 X67.4 Y59.752 E182.84378
G1 X67.559 Y59.103 E182.86601
G1 X67.914 Y58.416 E182.89173
M204 S2000
G0 F7500 X68.237 Y58.662
M204 S500
G1 F1500 X68.656 Y58.274 E182.91072
G1 X69.251 Y57.919 E182.93377
G1 X69.934 Y57.805 E182.9568
G1 X150.198 Y57.8 E185.62639
G1 X150.758 Y57.937 E185.64556
G1 X151.338 Y58.237 E185.66728
G1 X151.726 Y58.656 E185.68628
G1 X152.081 Y59.251 E185.70932
G1 X152.195 Y59.934 E185.73235
G1 X152.2 Y160.198 E189.06715
G1 X152.063 Y160.758 E189.08632
G1 X151.763 Y161.338 E189.10804
G1 X151.344 Y161.726 E189.12703
G1 X150.749 Y162.081 E189.15008
G1 X150.066 Y162.195 E189.17311
G1 X69.802 Y162.2 E191.8427
G1 X69.242 Y162.063 E191.86188
G1 X68.662 Y161.763 E191.88359
G1 X68.274 Y161.344 E191.90259
G1 X67.919 Y160.749 E191.92563
G1 X67.805 Y160.066 E191.94866
G1 X67.8 Y59.802 E195.28346
G1 X67.937 Y59.242 E195.30263
G1 X68.237 Y58.662 E195.32435
M204 S2000
G0 F7500 X68.56 Y58.908
M204 S500
G1 F1500 X68.898 Y58.595 E195.33967
G1 X69.389 Y58.302 E195.35869
G1 X70 Y58.2 E195.37929
G1 X150.148 Y58.2 E198.04503
G1 X150.619 Y58.315 E198.06115
G1 X151.092 Y58.56 E198.07887
G1 X151.405 Y58.898 E198.09419
G1 X151.698 Y59.389 E198.11321
G1 X151.8 Y60 E198.13381
G1 X151.8 Y160.148 E201.46475
G1 X151.685 Y160.619 E201.48087
G1 X151.44 Y161.092 E201.49859
G1 X151.102 Y161.405 E201.51391
G1 X150.611 Y161.698 E201.53293
G1 X150 Y161.8 E201.55353
G1 X69.852 Y161.8 E204.21927
G1 X69.381 Y161.685 E204.23539
G1 X68.908 Y161.44 E204.25311
G1 X68.595 Y161.102 E204.26843
G1 X68.302 Y160.611 E204.28745
G1 X68.2 Y160 E204.30805
G1 X68.2 Y59.852 E207.63899
G1 X68.315 Y59.381 E207.65511
G1 X68.56 Y58.908 E207.67283
M204 S2000
G0 F7500 X68.883 Y59.154
M204 S500
G1 F1500 X69.14 Y58.916 E207.68448
G1 X69.527 Y58.685 E207.69947
G1 X70 Y58.6 E207.71545
G1 X150.098 Y58.6 E210.37952
G1 X150.48 Y58.693 E210.3926
G1 X150.846 Y58.883 E210.40632
G1 X151.084 Y59.14 E210.41797
G1 X151.315 Y59.527 E210.43296
G1 X151.4 Y60 E210.44894
G1 X151.4 Y160.098 E213.77821
G1 X151.307 Y160.48 E213.79129
G1 X151.117 Y160.846 E213.80501
G1 X150.86 Y161.084 E213.81666
G1 X150.473 Y161.315 E213.83165
G1 X150 Y161.4 E213.84763
G1 X69.902 Y161.4 E216.5117
G1 X69.52 Y161.307 E216.52478
G1 X69.154 Y161.117 E216.53849
G1 X68.916 Y160.86 E216.55014
G1 X68.685 Y160.473 E216.56513
G1 X68.6 Y160 E216.58112
G1 X68.6 Y59.902 E219.91039
G1 X68.693 Y59.52 E219.92347
G1 X68.883 Y59.154 E219.93718
M204 S2000
G0 F7500 X69.207 Y59.399
M204 S500
G1 F1500 X69.07 Y59.662 E219.94705
G1 X69 Y59.951 E219.95694
G1 X69 Y160 E223.28458
G1 X69.065 Y160.328 E223.2957
G1 X69.26 Y160.655 E223.30837
G1 X69.399 Y160.793 E223.31488
G1 X69.662 Y160.93 E223.32474
G1 X69.951 Y161 E223.33463
G1 X150 Y161 E225.99707
G1 X150.328 Y160.935 E226.00819
G1 X150.655 Y160.74 E226.02086
G1 X150.793 Y160.601 E226.02737
G1 X150.93 Y160.338 E226.03724
G1 X151 Y160.049 E226.04713
G1 X151 Y60 E229.37477
G1 X150.935 Y59.672 E229.38589
G1 X150.74 Y59.345 E229.39855
G1 X150.601 Y59.207 E229.40507
G1 X150.338 Y59.07 E229.41493
G1 X150.049 Y59 E229.42482
G1 X70 Y59 E232.08726
G1 X69.672 Y59.065 E232.09838
G1 X69.345 Y59.26 E232.11105
G1 X69.207 Y59.399 E232.11756
M204 S2000
G0 F7500 X69.839 Y59.881
M204 S500
G1 F1500 X70 Y59.8 E232.12356
G1 X150 Y59.8 E234.78437
G1 X150.119 Y59.839 E234.78853
G1 X150.2 Y60 E234.79453
G1 X150.2 Y160 E238.12054
G1 X150.161 Y160.119 E238.1247
G1 X150 Y160.2 E238.1307
G1 X70 Y160.2 E240.79151
G1 X69.881 Y160.161 E240.79567
G1 X69.8 Y160 E240.80167
G1 X69.8 Y60 E244.12768
G1 X69.839 Y59.881 E244.13185
M204 S2000
G0 F7500 X69.459 Y59.756
M204 S500
G1 F1500 X69.55 Y59.604 E244.13774
G1 X69.82 Y59.443 E244.1482
G1 X70 Y59.4 E244.15435
G1 X150 Y59.4 E246.81516
G1 X150.244 Y59.459 E246.82351
G1 X150.396 Y59.55 E246.8294
G1 X150.557 Y59.82 E246.83986
G1 X150.6 Y60 E246.84601
G1 X150.6 Y160 E250.17203
G1 X150.541 Y160.244 E250.18038
G1 X150.45 Y160.396 E250.18627
G1 X150.18 Y160.557 E250.19673
G1 X150 Y160.6 E250.20288
G1 X70 Y160.6 E252.86369
G1 X69.756 Y160.541 E252.87204
G1 X69.604 Y160.45 E252.87793
G1 X69.443 Y160.18 E252.88839
G1 X69.4 Y160 E252.89454
G1 X69.4 Y60 E256.22056
G1 X69.459 Y59.756 E256.22891
M204 S2000
G1 F2400 E255.42891
;MESH:Foot_Switch_V1-4.stl
G0 F7500 X70.8 Y60.8
G0 X149.4 Y159.4
M204 S500
;TYPE:WALL-INNER
G1 F2400 E256.22891
G1 F1500 X149.4 Y60.6 E259.51501
G1 X70.6 Y60.6 E262.13591
G1 X70.6 Y159.4 E265.42201
G1 X149.4 Y159.4 E268.04291
