;FLAVOR:Marlin
;TIME:15889
;Filament used: 15.1316m
;Layer height: 0.2
;MINX:56
;MINY:54.5
;MINZ:0.2
;MAXX:164
;MAXY:165.5
;MAXZ:20
;TARGET_MACHINE.NAME:Creality Ender-3 S1 Pro
;Generated with Cura_SteamEngine 5.7.2
M104 S200
M105
M109 S200
M82 ;absolute extrusion mode
; Ender 3 S1 Pro Start G-code
; M413 S0 ; Disable power loss recovery
G92 E0 ; Reset Extruder

; Prep surfaces before auto home for better accuracy
M140 S60
M104 S200

G28 ; Home all axes
G1 Z10.0 F3000 ; Move Z Axis up little to prevent scratching of Heat Bed
G1 X0 Y0

M190 S60
M109 S200

G1 X0.1 Y20 Z0.3 F5000.0 ; Move to start position
G1 X0.1 Y200.0 Z0.3 F1500.0 E15 ; Draw the first line
G1 X0.4 Y200.0 Z0.3 F5000.0 ; Move to side a little
G1 X0.4 Y20 Z0.3 F1500.0 E30 ; Draw the second line
G92 E0 ; Reset Extruder
G1 Z2.0 F3000 ; Move Z Axis up little to prevent scratching of Heat Bed
G1 X5 Y20 Z0.3 F5000.0 ; Move over to prevent blob squish

G92 E0
G92 E0
G1 F2400 E-0.8
;LAYER_COUNT:100
;LAYER:0
M107
M204 S2000
G0 F7500 X56.979 Y57.44 Z0.2
M204 S500
;TYPE:SKIRT
G1 F2400 E0
G1 F1500 X57.974 Y56.512 E0.04525
G1 X59.271 Y55.738 E0.09549
G1 X60.476 Y55.54 E0.13611
G1 X81.529 Y55.5 E0.83633
G1 X82.75 Y55.8 E0.87815
G1 X84.06 Y56.479 E0.92723
G1 X84.988 Y57.474 E0.97248
G1 X85.762 Y58.771 E1.02272
G1 X85.96 Y59.976 E1.06333
G1 X86 Y161.029 E4.42437
G1 X85.7 Y162.25 E4.46619
G1 X85.021 Y163.56 E4.51526
G1 X84.026 Y164.488 E4.56052
G1 X82.729 Y165.262 E4.61075
G1 X81.524 Y165.46 E4.65137
G1 X60.471 Y165.5 E5.35159
G1 X59.25 Y165.2 E5.39341
G1 X57.94 Y164.521 E5.44249
G1 X57.012 Y163.526 E5.48774
G1 X56.238 Y162.229 E5.53798
G1 X56.04 Y161.024 E5.57859
G1 X56 Y59.971 E8.93963
G1 X56.3 Y58.75 E8.98145
G1 X56.979 Y57.44 E9.03053
M204 S2000
G0 F7500 X57.301 Y57.687
M204 S500
G1 F1500 X58.216 Y56.834 E9.07213
G1 X59.411 Y56.121 E9.11841
G1 X60.541 Y55.935 E9.1565
G1 X81.483 Y55.9 E9.85304
G1 X82.607 Y56.176 E9.89153
G1 X83.813 Y56.801 E9.93671
G1 X84.666 Y57.716 E9.97832
G1 X85.379 Y58.911 E10.0246
G1 X85.565 Y60.041 E10.06269
G1 X85.6 Y160.983 E13.42004
G1 X85.324 Y162.107 E13.45853
G1 X84.699 Y163.313 E13.50371
G1 X83.784 Y164.166 E13.54531
G1 X82.589 Y164.879 E13.5916
G1 X81.459 Y165.065 E13.62969
G1 X60.517 Y165.1 E14.32622
G1 X59.393 Y164.824 E14.36472
G1 X58.187 Y164.199 E14.4099
G1 X57.334 Y163.284 E14.4515
G1 X56.621 Y162.089 E14.49778
G1 X56.435 Y160.959 E14.53587
G1 X56.4 Y60.017 E17.89322
G1 X56.676 Y58.893 E17.93171
G1 X57.301 Y57.687 E17.97689
M204 S2000
G0 F7500 X57.623 Y57.934
M204 S500
G1 F1500 X58.458 Y57.156 E18.01485
G1 X59.551 Y56.504 E18.05718
G1 X60.606 Y56.33 E18.09274
G1 X81.436 Y56.3 E18.78555
G1 X82.465 Y56.553 E18.8208
G1 X83.566 Y57.123 E18.86203
G1 X84.344 Y57.958 E18.89999
G1 X84.996 Y59.051 E18.94232
G1 X85.17 Y60.106 E18.97789
G1 X85.2 Y160.936 E22.33151
G1 X84.947 Y161.965 E22.36675
G1 X84.377 Y163.066 E22.40799
G1 X83.542 Y163.844 E22.44594
G1 X82.449 Y164.496 E22.48827
G1 X81.394 Y164.67 E22.52384
G1 X60.564 Y164.7 E23.21665
G1 X59.535 Y164.447 E23.25189
G1 X58.434 Y163.877 E23.29313
G1 X57.656 Y163.042 E23.33109
G1 X57.004 Y161.949 E23.37342
G1 X56.83 Y160.894 E23.40898
G1 X56.8 Y60.064 E26.7626
G1 X57.053 Y59.035 E26.79784
G1 X57.623 Y57.934 E26.83908
M204 S2000
G0 F7500 X57.945 Y58.181
M204 S500
G1 F1500 X58.7 Y57.478 E26.87339
G1 X59.691 Y56.887 E26.91177
G1 X60.671 Y56.725 E26.94481
G1 X81.39 Y56.7 E27.63392
G1 X82.322 Y56.929 E27.66584
G1 X83.319 Y57.445 E27.70318
G1 X84.022 Y58.2 E27.73749
G1 X84.613 Y59.191 E27.77587
G1 X84.775 Y60.171 E27.80891
G1 X84.8 Y160.89 E31.15884
G1 X84.571 Y161.822 E31.19076
G1 X84.055 Y162.819 E31.22809
G1 X83.3 Y163.522 E31.26241
G1 X82.309 Y164.113 E31.30078
G1 X81.329 Y164.275 E31.33382
G1 X60.61 Y164.3 E32.02294
G1 X59.678 Y164.071 E32.05486
G1 X58.681 Y163.555 E32.0922
G1 X57.978 Y162.8 E32.12651
G1 X57.387 Y161.809 E32.16488
G1 X57.225 Y160.829 E32.19792
G1 X57.2 Y60.11 E35.54785
G1 X57.429 Y59.178 E35.57977
G1 X57.945 Y58.181 E35.61711
M204 S2000
G0 F7500 X58.268 Y58.426
M204 S500
G1 F1500 X58.939 Y57.802 E35.64758
G1 X59.831 Y57.27 E35.68213
G1 X60.736 Y57.12 E35.71264
G1 X81.344 Y57.1 E36.39807
G1 X82.179 Y57.305 E36.42666
G1 X83.074 Y57.768 E36.46018
G1 X83.698 Y58.439 E36.49065
G1 X84.23 Y59.331 E36.5252
G1 X84.38 Y60.236 E36.55571
G1 X84.4 Y160.844 E39.90194
G1 X84.195 Y161.679 E39.93054
G1 X83.732 Y162.574 E39.96406
G1 X83.061 Y163.198 E39.99453
G1 X82.169 Y163.73 E40.02908
G1 X81.264 Y163.88 E40.05959
G1 X60.656 Y163.9 E40.74501
G1 X59.821 Y163.695 E40.77361
G1 X58.926 Y163.232 E40.80713
G1 X58.302 Y162.561 E40.8376
G1 X57.77 Y161.669 E40.87215
G1 X57.62 Y160.764 E40.90266
G1 X57.6 Y60.156 E44.24889
G1 X57.805 Y59.321 E44.27749
G1 X58.268 Y58.426 E44.311
M204 S2000
G0 F7500 X58.591 Y58.671
M204 S500
G1 F1500 X59.178 Y58.126 E44.33765
G1 X59.971 Y57.653 E44.36836
G1 X60.802 Y57.515 E44.39637
G1 X81.298 Y57.5 E45.07807
G1 X82.036 Y57.681 E45.10335
G1 X82.829 Y58.091 E45.13304
G1 X83.374 Y58.678 E45.15968
G1 X83.847 Y59.471 E45.19039
G1 X83.985 Y60.302 E45.21841
G1 X84 Y160.798 E48.56092
G1 X83.819 Y161.536 E48.58619
G1 X83.409 Y162.329 E48.61589
G1 X82.822 Y162.874 E48.64253
G1 X82.029 Y163.347 E48.67324
G1 X81.198 Y163.485 E48.70126
G1 X60.702 Y163.5 E49.38296
G1 X59.964 Y163.319 E49.40823
G1 X59.171 Y162.909 E49.43792
G1 X58.626 Y162.322 E49.46456
G1 X58.153 Y161.529 E49.49527
G1 X58.015 Y160.698 E49.52329
G1 X58 Y60.202 E52.8658
G1 X58.181 Y59.464 E52.89107
G1 X58.591 Y58.671 E52.92077
M204 S2000
G0 F7500 X58.914 Y58.916
M204 S500
G1 F1500 X59.417 Y58.45 E52.94357
G1 X60.111 Y58.036 E52.97045
G1 X60.868 Y57.91 E52.99597
G1 X81.248 Y57.9 E53.67382
G1 X81.897 Y58.059 E53.69604
G1 X82.584 Y58.414 E53.72176
G1 X83.05 Y58.917 E53.74457
G1 X83.464 Y59.611 E53.77144
G1 X83.59 Y60.368 E53.79697
G1 X83.6 Y160.748 E57.13562
G1 X83.441 Y161.397 E57.15784
G1 X83.086 Y162.084 E57.18356
G1 X82.583 Y162.55 E57.20637
G1 X81.889 Y162.964 E57.23325
G1 X81.132 Y163.09 E57.25877
G1 X60.752 Y163.1 E57.93661
G1 X60.103 Y162.941 E57.95884
G1 X59.416 Y162.586 E57.98456
G1 X58.95 Y162.083 E58.00736
G1 X58.536 Y161.389 E58.03424
G1 X58.41 Y160.632 E58.05977
G1 X58.4 Y60.252 E61.39842
G1 X58.559 Y59.603 E61.42064
G1 X58.914 Y58.916 E61.44636
M204 S2000
G0 F7500 X59.237 Y59.162
M204 S500
G1 F1500 X59.656 Y58.774 E61.46536
G1 X60.251 Y58.419 E61.4884
G1 X60.934 Y58.305 E61.51143
G1 X81.198 Y58.3 E62.18542
G1 X81.758 Y58.437 E62.20459
G1 X82.338 Y58.737 E62.22631
G1 X82.726 Y59.156 E62.2453
G1 X83.081 Y59.751 E62.26835
G1 X83.195 Y60.434 E62.29138
G1 X83.2 Y160.698 E65.62617
G1 X83.063 Y161.258 E65.64535
G1 X82.763 Y161.838 E65.66707
G1 X82.344 Y162.226 E65.68606
G1 X81.749 Y162.581 E65.7091
G1 X81.066 Y162.695 E65.73213
G1 X60.802 Y162.7 E66.40612
G1 X60.242 Y162.563 E66.42529
G1 X59.662 Y162.263 E66.44701
G1 X59.274 Y161.844 E66.466
G1 X58.919 Y161.249 E66.48905
G1 X58.805 Y160.566 E66.51208
G1 X58.8 Y60.302 E69.84687
G1 X58.937 Y59.742 E69.86605
G1 X59.237 Y59.162 E69.88777
M204 S2000
G0 F7500 X59.56 Y59.408
M204 S500
G1 F1500 X59.315 Y59.881 E69.90549
G1 X59.2 Y60.352 E69.92161
G1 X59.2 Y160.5 E73.25255
G1 X59.302 Y161.111 E73.27315
G1 X59.595 Y161.602 E73.29217
G1 X59.908 Y161.94 E73.30749
G1 X60.381 Y162.185 E73.32521
G1 X60.852 Y162.3 E73.34133
G1 X81 Y162.3 E74.01146
G1 X81.611 Y162.198 E74.03206
G1 X82.102 Y161.905 E74.05108
G1 X82.44 Y161.592 E74.0664
G1 X82.685 Y161.119 E74.08412
G1 X82.8 Y160.648 E74.10024
G1 X82.8 Y60.5 E77.43118
G1 X82.698 Y59.889 E77.45178
G1 X82.405 Y59.398 E77.4708
G1 X82.092 Y59.06 E77.48612
G1 X81.619 Y58.815 E77.50384
G1 X81.148 Y58.7 E77.51996
G1 X61 Y58.7 E78.19009
G1 X60.389 Y58.802 E78.21069
G1 X59.898 Y59.095 E78.22971
G1 X59.56 Y59.408 E78.24503
M204 S2000
G0 F7500 X59.883 Y59.654
M204 S500
G1 F1500 X59.693 Y60.02 E78.25875
G1 X59.6 Y60.402 E78.27182
G1 X59.6 Y160.5 E81.6011
G1 X59.685 Y160.973 E81.61708
G1 X59.916 Y161.36 E81.63207
G1 X60.154 Y161.617 E81.64372
G1 X60.52 Y161.807 E81.65744
G1 X60.902 Y161.9 E81.67051
G1 X81 Y161.9 E82.33898
G1 X81.473 Y161.815 E82.35496
G1 X81.86 Y161.584 E82.36995
G1 X82.117 Y161.346 E82.3816
G1 X82.307 Y160.98 E82.39532
G1 X82.4 Y160.598 E82.40839
G1 X82.4 Y60.5 E85.73767
G1 X82.315 Y60.027 E85.75365
G1 X82.084 Y59.64 E85.76864
G1 X81.846 Y59.383 E85.78029
G1 X81.48 Y59.193 E85.79401
G1 X81.098 Y59.1 E85.80708
G1 X61 Y59.1 E86.47554
G1 X60.527 Y59.185 E86.49153
G1 X60.14 Y59.416 E86.50652
G1 X59.883 Y59.654 E86.51817
M204 S2000
G0 F7500 X60.207 Y59.899
M204 S500
G1 F1500 X60.345 Y59.76 E86.52468
G1 X60.672 Y59.565 E86.53735
G1 X61 Y59.5 E86.54847
G1 X81.049 Y59.5 E87.2153
G1 X81.338 Y59.57 E87.22519
G1 X81.601 Y59.707 E87.23505
G1 X81.74 Y59.845 E87.24157
G1 X81.935 Y60.172 E87.25423
G1 X82 Y60.5 E87.26535
G1 X82 Y160.549 E90.593
G1 X81.93 Y160.838 E90.60289
G1 X81.793 Y161.101 E90.61275
G1 X81.655 Y161.24 E90.61926
G1 X81.328 Y161.435 E90.63193
G1 X81 Y161.5 E90.64305
G1 X60.951 Y161.5 E91.30988
G1 X60.662 Y161.43 E91.31977
G1 X60.399 Y161.293 E91.32963
G1 X60.26 Y161.155 E91.33615
G1 X60.065 Y160.828 E91.34881
G1 X60 Y160.5 E91.35993
G1 X60 Y60.451 E94.68758
G1 X60.07 Y60.162 E94.69747
G1 X60.207 Y59.899 E94.70733
M204 S2000
G0 F7500 X60.839 Y60.381
M204 S500
G1 F1500 X61 Y60.3 E94.71332
G1 X81 Y60.3 E95.37853
G1 X81.119 Y60.339 E95.38269
G1 X81.2 Y60.5 E95.38869
G1 X81.2 Y160.5 E98.7147
G1 X81.161 Y160.619 E98.71887
G1 X81 Y160.7 E98.72486
G1 X61 Y160.7 E99.39006
G1 X60.881 Y160.661 E99.39423
G1 X60.8 Y160.5 E99.40022
G1 X60.8 Y60.5 E102.72624
G1 X60.839 Y60.381 E102.7304
M204 S2000
G0 F7500 X60.459 Y60.256
M204 S500
G1 F1500 X60.55 Y60.104 E102.73629
G1 X60.82 Y59.943 E102.74675
G1 X61 Y59.9 E102.7529
G1 X81 Y59.9 E103.41811
G1 X81.244 Y59.959 E103.42646
G1 X81.396 Y60.05 E103.43235
G1 X81.557 Y60.32 E103.4428
G1 X81.6 Y60.5 E103.44896
G1 X81.6 Y160.5 E106.77497
G1 X81.541 Y160.744 E106.78332
G1 X81.45 Y160.896 E106.78921
G1 X81.18 Y161.057 E106.79967
G1 X81 Y161.1 E106.80583
G1 X61 Y161.1 E107.47103
G1 X60.756 Y161.041 E107.47938
G1 X60.604 Y160.95 E107.48527
G1 X60.443 Y160.68 E107.49573
G1 X60.4 Y160.5 E107.50188
G1 X60.4 Y60.5 E110.82789
G1 X60.459 Y60.256 E110.83624
M204 S2000
G1 F2400 E110.03624
G0 F7500 X60.335 Y60.256
G0 X60.347 Y59.847
G0 X96 Y58.971
M204 S500
G1 F2400 E110.83624
G1 F1500 X96.3 Y57.75 E110.87806
G1 X96.979 Y56.44 E110.92714
G1 X97.974 Y55.512 E110.97239
G1 X99.271 Y54.738 E111.02263
G1 X100.476 Y54.54 E111.06324
G1 X121.529 Y54.5 E111.76347
G1 X122.75 Y54.8 E111.80529
G1 X124.06 Y55.479 E111.85436
G1 X124.988 Y56.474 E111.89962
G1 X125.762 Y57.771 E111.94985
G1 X125.96 Y58.976 E111.99047
G1 X126 Y160.029 E115.35151
G1 X125.7 Y161.25 E115.39332
G1 X125.021 Y162.56 E115.4424
G1 X124.026 Y163.488 E115.48765
G1 X122.729 Y164.262 E115.53789
G1 X121.524 Y164.46 E115.57851
G1 X100.471 Y164.5 E116.27873
G1 X99.25 Y164.2 E116.32055
G1 X97.94 Y163.521 E116.36963
G1 X97.012 Y162.526 E116.41488
G1 X96.238 Y161.229 E116.46512
G1 X96.04 Y160.024 E116.50573
G1 X96 Y58.971 E119.86677
M204 S2000
G0 F7500 X96.4 Y59.017
M204 S500
G1 F1500 X96.676 Y57.893 E119.90526
G1 X97.301 Y56.687 E119.95044
G1 X98.216 Y55.834 E119.99205
G1 X99.411 Y55.121 E120.03833
G1 X100.541 Y54.935 E120.07642
G1 X121.483 Y54.9 E120.77296
G1 X122.607 Y55.176 E120.81145
G1 X123.813 Y55.801 E120.85663
G1 X124.666 Y56.716 E120.89823
G1 X125.379 Y57.911 E120.94452
G1 X125.565 Y59.041 E120.98261
G1 X125.6 Y159.983 E124.33995
G1 X125.324 Y161.107 E124.37845
G1 X124.699 Y162.313 E124.42363
G1 X123.784 Y163.166 E124.46523
G1 X122.589 Y163.879 E124.51151
G1 X121.459 Y164.065 E124.5496
G1 X100.517 Y164.1 E125.24614
G1 X99.393 Y163.824 E125.28463
G1 X98.187 Y163.199 E125.32981
G1 X97.334 Y162.284 E125.37142
G1 X96.621 Y161.089 E125.4177
G1 X96.435 Y159.959 E125.45579
G1 X96.4 Y59.017 E128.81314
M204 S2000
G0 F7500 X96.8 Y59.064
M204 S500
G1 F1500 X97.053 Y58.035 E128.84838
G1 X97.623 Y56.934 E128.88962
G1 X98.458 Y56.156 E128.92757
G1 X99.551 Y55.504 E128.9699
G1 X100.606 Y55.33 E129.00547
G1 X121.436 Y55.3 E129.69828
G1 X122.465 Y55.553 E129.73352
G1 X123.566 Y56.123 E129.77476
G1 X124.344 Y56.958 E129.81272
G1 X124.996 Y58.051 E129.85505
G1 X125.17 Y59.106 E129.89061
G1 X125.2 Y159.936 E133.24423
G1 X124.947 Y160.965 E133.27947
G1 X124.377 Y162.066 E133.32071
G1 X123.542 Y162.844 E133.35867
G1 X122.449 Y163.496 E133.401
G1 X121.394 Y163.67 E133.43656
G1 X100.564 Y163.7 E134.12937
G1 X99.535 Y163.447 E134.16461
G1 X98.434 Y162.877 E134.20585
G1 X97.656 Y162.042 E134.24381
G1 X97.004 Y160.949 E134.28614
G1 X96.83 Y159.894 E134.3217
G1 X96.8 Y59.064 E137.67532
M204 S2000
G0 F7500 X97.2 Y59.11
M204 S500
G1 F1500 X97.429 Y58.178 E137.70724
G1 X97.945 Y57.181 E137.74458
G1 X98.7 Y56.478 E137.77889
G1 X99.691 Y55.887 E137.81727
G1 X100.671 Y55.725 E137.85031
G1 X121.39 Y55.7 E138.53942
G1 X122.322 Y55.929 E138.57135
G1 X123.319 Y56.445 E138.60868
G1 X124.022 Y57.2 E138.643
G1 X124.613 Y58.191 E138.68137
G1 X124.775 Y59.171 E138.71441
G1 X124.8 Y159.89 E142.06434
G1 X124.571 Y160.822 E142.09626
G1 X124.055 Y161.819 E142.1336
G1 X123.3 Y162.522 E142.16791
G1 X122.309 Y163.113 E142.20628
G1 X121.329 Y163.275 E142.23932
G1 X100.61 Y163.3 E142.92844
G1 X99.678 Y163.071 E142.96036
G1 X98.681 Y162.555 E142.9977
G1 X97.978 Y161.8 E143.03201
G1 X97.387 Y160.809 E143.07039
G1 X97.225 Y159.829 E143.10342
G1 X97.2 Y59.11 E146.45335
M204 S2000
G0 F7500 X97.6 Y59.156
M204 S500
G1 F1500 X97.805 Y58.321 E146.48195
G1 X98.268 Y57.426 E146.51546
G1 X98.939 Y56.802 E146.54594
G1 X99.831 Y56.27 E146.58048
G1 X100.736 Y56.12 E146.611
G1 X121.344 Y56.1 E147.29642
G1 X122.179 Y56.305 E147.32502
G1 X123.074 Y56.768 E147.35853
G1 X123.698 Y57.439 E147.38901
G1 X124.23 Y58.331 E147.42355
G1 X124.38 Y59.236 E147.45406
G1 X124.4 Y159.844 E150.8003
G1 X124.195 Y160.679 E150.8289
G1 X123.732 Y161.574 E150.86241
G1 X123.061 Y162.198 E150.89289
G1 X122.169 Y162.73 E150.92743
G1 X121.264 Y162.88 E150.95794
G1 X100.656 Y162.9 E151.64337
G1 X99.821 Y162.695 E151.67197
G1 X98.926 Y162.232 E151.70548
G1 X98.302 Y161.561 E151.73596
G1 X97.77 Y160.669 E151.7705
G1 X97.62 Y159.764 E151.80101
G1 X97.6 Y59.156 E155.14725
M204 S2000
G0 F7500 X98 Y59.202
M204 S500
G1 F1500 X98.181 Y58.464 E155.17252
G1 X98.591 Y57.671 E155.20221
G1 X99.178 Y57.126 E155.22885
G1 X99.971 Y56.653 E155.25957
G1 X100.802 Y56.515 E155.28758
G1 X121.298 Y56.5 E155.96928
G1 X122.036 Y56.681 E155.99456
G1 X122.829 Y57.091 E156.02425
G1 X123.374 Y57.678 E156.05089
G1 X123.847 Y58.471 E156.0816
G1 X123.985 Y59.302 E156.10962
G1 X124 Y159.798 E159.45213
G1 X123.819 Y160.536 E159.4774
G1 X123.409 Y161.329 E159.50709
G1 X122.822 Y161.874 E159.53374
G1 X122.029 Y162.347 E159.56445
G1 X121.198 Y162.485 E159.59246
G1 X100.702 Y162.5 E160.27416
G1 X99.964 Y162.319 E160.29944
G1 X99.171 Y161.909 E160.32913
G1 X98.626 Y161.322 E160.35577
G1 X98.153 Y160.529 E160.38648
G1 X98.015 Y159.698 E160.4145
G1 X98 Y59.202 E163.75701
M204 S2000
G0 F7500 X98.4 Y59.252
M204 S500
G1 F1500 X98.559 Y58.603 E163.77923
G1 X98.914 Y57.916 E163.80495
G1 X99.417 Y57.45 E163.82776
G1 X100.111 Y57.036 E163.85464
G1 X100.868 Y56.91 E163.88016
G1 X121.248 Y56.9 E164.558
G1 X121.897 Y57.059 E164.58023
G1 X122.584 Y57.414 E164.60595
G1 X123.05 Y57.917 E164.62875
G1 X123.464 Y58.611 E164.65563
G1 X123.59 Y59.368 E164.68116
G1 X123.6 Y159.748 E168.01981
G1 X123.441 Y160.397 E168.04203
G1 X123.086 Y161.084 E168.06775
G1 X122.583 Y161.55 E168.09056
G1 X121.889 Y161.964 E168.11744
G1 X121.132 Y162.09 E168.14296
G1 X100.752 Y162.1 E168.8208
G1 X100.103 Y161.941 E168.84303
G1 X99.416 Y161.586 E168.86875
G1 X98.95 Y161.083 E168.89155
G1 X98.536 Y160.389 E168.91843
G1 X98.41 Y159.632 E168.94395
G1 X98.4 Y59.252 E172.28261
M204 S2000
G0 F7500 X98.8 Y59.302
M204 S500
G1 F1500 X98.937 Y58.742 E172.30178
G1 X99.237 Y58.162 E172.3235
G1 X99.656 Y57.774 E172.34249
G1 X100.251 Y57.419 E172.36554
G1 X100.934 Y57.305 E172.38857
G1 X121.198 Y57.3 E173.06255
G1 X121.758 Y57.437 E173.08173
G1 X122.338 Y57.737 E173.10345
G1 X122.726 Y58.156 E173.12244
G1 X123.081 Y58.751 E173.14548
G1 X123.195 Y59.434 E173.16851
G1 X123.2 Y159.698 E176.50331
